;FLAVOR:Marlin
;TIME:1343
;Filament used: 1.33343m
;Layer height: 0.2
;MINX:90.56
;MINY:80.631
;MINZ:0.2
;MAXX:129.44
;MAXY:139.37
;MAXZ:13
;Generated with Cura_SteamEngine 4.4.1
M82 ;absolute extrusion mode
;Start preheat anton
M104 S200 ; Set Extruder temperature
M140 S60 ; Set Heat Bed temperature
M190 S60 ; Wait for Heat Bed temperature
M109 S200 ; Wait for Extruder temperature
;End of preheat anton
M201 X500.00 Y500.00 Z100.00 E5000.00 ;Setup machine max acceleration
M203 X500.00 Y500.00 Z10.00 E50.00 ;Setup machine max feedrate
M204 P500.00 R1000.00 T500.00 ;Setup Print/Retract/Travel acceleration
M205 X8.00 Y8.00 Z0.40 E5.00 ;Setup Jerk
M220 S100 ;Reset Feedrate
M221 S100 ;Reset Flowrate

G28 ;Home

G92 E0 ;Reset Extruder
G1 Z2.0 F3000 ;Move Z Axis up
G1 X10.1 Y20 Z0.28 F5000.0 ;Move to start position
G1 X10.1 Y200.0 Z0.28 F1500.0 E15 ;Draw the first line
G1 X10.4 Y200.0 Z0.28 F5000.0 ;Move to side a little
G1 X10.4 Y20 Z0.28 F1500.0 E30 ;Draw the second line
G92 E0 ;Reset Extruder
G1 Z2.0 F3000 ;Move Z Axis up
G92 E0
G92 E0
G1 F1500 E-6.5
;LAYER_COUNT:65
;LAYER:0
M107
G0 F6000 X93.683 Y84.651 Z0.2
;TYPE:SKIRT
G1 F1500 E0
G1 F1200 X94.324 Y83.966 E0.0312
G1 X95.021 Y83.339 E0.06238
G1 X95.537 Y82.938 E0.08412
G1 X95.73 Y82.797 E0.09207
G1 X96.51 Y82.276 E0.12327
G1 X97.332 Y81.824 E0.15447
G1 X98.189 Y81.444 E0.18565
G1 X99.076 Y81.138 E0.21686
G1 X100.221 Y80.862 E0.25603
G1 X100.443 Y80.821 E0.26354
G1 X101.372 Y80.69 E0.29474
G1 X102.285 Y80.639 E0.32516
G1 X102.779 Y80.632 E0.34159
G1 X102.935 Y80.631 E0.34678
G1 X116.914 Y80.631 E0.81172
G1 X117.072 Y80.632 E0.81698
G1 X117.77 Y80.642 E0.84019
G1 X118.706 Y80.696 E0.87138
G1 X119.634 Y80.828 E0.90255
G1 X120.548 Y81.04 E0.93376
G1 X121.494 Y81.349 E0.96686
G1 X121.775 Y81.455 E0.97685
G1 X122.638 Y81.823 E1.00805
G1 X123.466 Y82.263 E1.03924
G1 X124.254 Y82.773 E1.07046
G1 X124.995 Y83.347 E1.10163
G1 X125.894 Y84.199 E1.14283
G1 X126.044 Y84.358 E1.1501
G1 X126.658 Y85.067 E1.1813
G1 X127.21 Y85.825 E1.21248
G1 X127.547 Y86.368 E1.23374
G1 X127.688 Y86.61 E1.24305
G1 X128.126 Y87.44 E1.27427
G1 X128.344 Y87.931 E1.29214
G1 X128.432 Y88.143 E1.29977
G1 X128.849 Y89.338 E1.34187
G1 X128.913 Y89.562 E1.34962
G1 X129.127 Y90.451 E1.38003
G1 X129.178 Y90.709 E1.38878
G1 X129.318 Y91.61 E1.4191
G1 X129.35 Y91.894 E1.42861
G1 X129.417 Y92.926 E1.46301
G1 X129.438 Y94.079 E1.50136
G1 X129.44 Y94.28 E1.50805
G1 X129.438 Y125.962 E2.56179
G1 X129.437 Y126.122 E2.56712
G1 X129.427 Y126.805 E2.58983
G1 X129.419 Y127.079 E2.59895
G1 X129.411 Y127.281 E2.60568
G1 X129.377 Y127.822 E2.6237
G1 X129.359 Y128.024 E2.63045
G1 X129.243 Y128.91 E2.66017
G1 X129.187 Y129.236 E2.67117
G1 X128.952 Y130.292 E2.70715
G1 X128.878 Y130.561 E2.71643
G1 X128.591 Y131.453 E2.7476
G1 X128.27 Y132.23 E2.77556
G1 X128.114 Y132.57 E2.788
G1 X127.687 Y133.405 E2.8192
G1 X127.039 Y134.415 E2.85911
G1 X126.897 Y134.612 E2.86718
G1 X126.317 Y135.349 E2.89838
G1 X125.676 Y136.034 E2.92958
G1 X124.979 Y136.661 E2.96076
G1 X124.463 Y137.062 E2.9825
G1 X124.27 Y137.203 E2.99045
G1 X123.49 Y137.724 E3.02165
G1 X122.668 Y138.176 E3.05285
G1 X121.811 Y138.556 E3.08403
G1 X120.924 Y138.862 E3.11523
G1 X119.779 Y139.138 E3.15441
G1 X119.557 Y139.179 E3.16192
G1 X118.628 Y139.31 E3.19312
G1 X117.714 Y139.361 E3.22357
G1 X117.217 Y139.368 E3.2401
G1 X117.063 Y139.369 E3.24522
G1 X103.09 Y139.37 E3.70997
G1 X102.932 Y139.369 E3.71522
G1 X102.233 Y139.359 E3.73847
G1 X101.296 Y139.305 E3.76969
G1 X100.368 Y139.173 E3.80086
G1 X99.454 Y138.961 E3.83207
G1 X98.851 Y138.775 E3.85306
G1 X98.592 Y138.687 E3.86216
G1 X97.718 Y138.348 E3.89334
G1 X96.876 Y137.935 E3.92453
G1 X96.072 Y137.453 E3.95571
G1 X95.312 Y136.903 E3.98691
G1 X94.601 Y136.291 E4.01811
G1 X94.208 Y135.903 E4.03648
G1 X94.025 Y135.713 E4.04525
G1 X93.404 Y135.01 E4.07645
G1 X92.845 Y134.257 E4.10764
G1 X92.4 Y133.544 E4.1356
G1 X92.265 Y133.308 E4.14464
G1 X91.648 Y132.049 E4.19127
G1 X91.562 Y131.841 E4.19876
G1 X91.131 Y130.591 E4.24274
G1 X91.063 Y130.347 E4.25116
G1 X90.85 Y129.433 E4.28238
G1 X90.797 Y129.152 E4.29189
G1 X90.666 Y128.257 E4.32197
G1 X90.641 Y128.018 E4.32997
G1 X90.583 Y127.07 E4.36155
G1 X90.562 Y125.893 E4.40071
G1 X90.56 Y125.696 E4.40726
G1 X90.562 Y94.008 E5.46121
G1 X90.563 Y93.841 E5.46676
G1 X90.573 Y93.188 E5.48848
G1 X90.582 Y92.898 E5.49813
G1 X90.591 Y92.682 E5.50532
G1 X90.641 Y91.996 E5.5282
G1 X90.671 Y91.709 E5.5378
G1 X90.811 Y90.763 E5.56961
G1 X90.859 Y90.515 E5.57801
G1 X91.086 Y89.572 E5.61027
G1 X91.156 Y89.328 E5.61871
G1 X91.452 Y88.438 E5.64991
G1 X91.7 Y87.842 E5.67138
G1 X91.855 Y87.498 E5.68393
G1 X92.276 Y86.66 E5.71512
G1 X92.961 Y85.585 E5.75751
G1 X93.103 Y85.388 E5.76559
G1 X93.683 Y84.651 E5.79678
G0 F6000 X93.997 Y84.899
G1 F1200 X94.628 Y84.228 E5.82742
G1 X95.315 Y83.615 E5.85804
G1 X95.773 Y83.261 E5.8773
G1 X95.966 Y83.12 E5.88525
G1 X96.732 Y82.61 E5.91585
G1 X97.54 Y82.168 E5.94649
G1 X98.383 Y81.798 E5.97711
G1 X99.255 Y81.502 E6.00773
G1 X100.294 Y81.255 E6.04325
G1 X100.516 Y81.214 E6.05076
G1 X101.428 Y81.087 E6.08139
G1 X102.291 Y81.039 E6.11014
G1 X102.785 Y81.032 E6.12657
G1 X102.935 Y81.031 E6.13156
G1 X116.914 Y81.031 E6.5965
G1 X117.066 Y81.032 E6.60156
G1 X117.764 Y81.042 E6.62478
G1 X118.683 Y81.095 E6.65539
G1 X119.594 Y81.228 E6.68601
G1 X120.49 Y81.439 E6.71663
G1 X121.353 Y81.723 E6.74685
G1 X121.634 Y81.829 E6.75684
G1 X122.481 Y82.191 E6.78747
G1 X123.293 Y82.625 E6.8181
G1 X124.064 Y83.128 E6.84871
G1 X124.788 Y83.696 E6.87932
G1 X125.603 Y84.473 E6.91677
G1 X125.753 Y84.632 E6.92404
G1 X126.355 Y85.329 E6.95468
G1 X126.895 Y86.075 E6.98531
G1 X127.202 Y86.57 E7.00468
G1 X127.343 Y86.812 E7.01399
G1 X127.771 Y87.627 E7.04461
G1 X127.974 Y88.084 E7.06124
G1 X128.062 Y88.296 E7.06888
G1 X128.464 Y89.448 E7.10946
G1 X128.528 Y89.672 E7.11721
G1 X128.735 Y90.528 E7.1465
G1 X128.786 Y90.786 E7.15525
G1 X128.92 Y91.655 E7.18449
G1 X128.952 Y91.939 E7.194
G1 X129.017 Y92.933 E7.22713
G1 X129.038 Y94.086 E7.26548
G1 X129.04 Y94.28 E7.27194
G1 X129.038 Y125.962 E8.32568
G1 X129.037 Y126.116 E8.33081
G1 X129.027 Y126.799 E8.35353
G1 X129.02 Y127.063 E8.36231
G1 X129.012 Y127.265 E8.36903
G1 X128.978 Y127.787 E8.38643
G1 X128.96 Y127.989 E8.39318
G1 X128.849 Y128.843 E8.42182
G1 X128.793 Y129.169 E8.43282
G1 X128.566 Y130.186 E8.46748
G1 X128.492 Y130.455 E8.47676
G1 X128.21 Y131.331 E8.50737
G1 X127.906 Y132.063 E8.53373
G1 X127.75 Y132.403 E8.54617
G1 X127.33 Y133.223 E8.57681
G1 X126.715 Y134.181 E8.61468
G1 X126.573 Y134.378 E8.62275
G1 X126.003 Y135.101 E8.65338
G1 X125.372 Y135.772 E8.68401
G1 X124.685 Y136.385 E8.71464
G1 X124.227 Y136.739 E8.73389
G1 X124.034 Y136.88 E8.74184
G1 X123.268 Y137.39 E8.77245
G1 X122.46 Y137.832 E8.80308
G1 X121.617 Y138.202 E8.8337
G1 X120.745 Y138.498 E8.86433
G1 X119.706 Y138.745 E8.89985
G1 X119.484 Y138.786 E8.90736
G1 X118.572 Y138.913 E8.93798
G1 X117.708 Y138.961 E8.96676
G1 X117.211 Y138.968 E8.98329
G1 X117.063 Y138.969 E8.98822
G1 X103.09 Y138.97 E9.45296
G1 X102.937 Y138.969 E9.45805
G1 X102.238 Y138.959 E9.4813
G1 X101.319 Y138.906 E9.51192
G1 X100.408 Y138.773 E9.54254
G1 X99.512 Y138.562 E9.57316
G1 X98.98 Y138.396 E9.59169
G1 X98.721 Y138.308 E9.60079
G1 X97.863 Y137.975 E9.6314
G1 X97.037 Y137.568 E9.66203
G1 X96.25 Y137.091 E9.69264
G1 X95.507 Y136.547 E9.72326
G1 X94.496 Y135.625 E9.76877
G1 X94.313 Y135.435 E9.77755
G1 X93.704 Y134.745 E9.80816
G1 X93.157 Y134.005 E9.83876
G1 X92.747 Y133.345 E9.86461
G1 X92.612 Y133.109 E9.87365
G1 X92.017 Y131.896 E9.91859
G1 X91.931 Y131.688 E9.92607
G1 X91.516 Y130.484 E9.96843
G1 X91.448 Y130.24 E9.97685
G1 X91.243 Y129.359 E10.00694
G1 X91.19 Y129.078 E10.01645
G1 X91.064 Y128.216 E10.04542
G1 X91.039 Y127.977 E10.05342
G1 X90.983 Y127.063 E10.08387
G1 X90.962 Y125.886 E10.12303
G1 X90.96 Y125.696 E10.12935
G1 X90.962 Y94.008 E11.18329
G1 X90.963 Y93.847 E11.18865
G1 X90.973 Y93.194 E11.21037
G1 X90.981 Y92.915 E11.21965
G1 X90.99 Y92.699 E11.22684
G1 X91.038 Y92.038 E11.24889
G1 X91.068 Y91.751 E11.25848
G1 X91.204 Y90.839 E11.28915
G1 X91.252 Y90.591 E11.29755
G1 X91.47 Y89.682 E11.32865
G1 X91.54 Y89.438 E11.33709
G1 X91.832 Y88.565 E11.36771
G1 X92.065 Y88.006 E11.38785
G1 X92.22 Y87.662 E11.4004
G1 X92.634 Y86.84 E11.43101
G1 X93.285 Y85.819 E11.47128
G1 X93.427 Y85.622 E11.47936
G1 X93.997 Y84.899 E11.50998
G0 F6000 X94.312 Y85.147
G1 F1200 X94.932 Y84.491 E11.54
G1 X95.608 Y83.892 E11.57004
G1 X96.009 Y83.584 E11.58686
G1 X96.202 Y83.443 E11.59481
G1 X96.954 Y82.943 E11.62485
G1 X97.747 Y82.511 E11.65488
G1 X98.576 Y82.152 E11.68493
G1 X99.433 Y81.867 E11.71497
G1 X100.367 Y81.649 E11.74687
G1 X100.589 Y81.608 E11.75438
G1 X101.483 Y81.483 E11.7844
G1 X102.296 Y81.439 E11.81148
G1 X102.79 Y81.432 E11.82791
G1 X102.935 Y81.431 E11.83274
G1 X116.914 Y81.431 E12.29768
G1 X117.06 Y81.432 E12.30254
G1 X117.758 Y81.442 E12.32575
G1 X118.66 Y81.495 E12.35581
G1 X119.553 Y81.627 E12.38583
G1 X120.431 Y81.838 E12.41586
G1 X121.212 Y82.097 E12.44323
G1 X121.493 Y82.203 E12.45322
G1 X122.323 Y82.559 E12.48326
G1 X123.118 Y82.987 E12.51329
G1 X123.873 Y83.484 E12.54335
G1 X124.58 Y84.045 E12.57337
G1 X125.312 Y84.748 E12.60713
G1 X125.462 Y84.907 E12.6144
G1 X126.052 Y85.59 E12.64442
G1 X126.58 Y86.323 E12.67446
G1 X126.856 Y86.771 E12.69196
G1 X126.997 Y87.013 E12.70128
G1 X127.417 Y87.813 E12.73133
G1 X127.605 Y88.238 E12.74679
G1 X127.693 Y88.45 E12.75442
G1 X128.08 Y89.558 E12.79346
G1 X128.144 Y89.782 E12.80121
G1 X128.342 Y90.606 E12.82939
G1 X128.393 Y90.864 E12.83814
G1 X128.523 Y91.7 E12.86628
G1 X128.555 Y91.984 E12.87578
G1 X128.617 Y92.94 E12.90765
G1 X128.638 Y94.093 E12.946
G1 X128.64 Y94.28 E12.95222
G1 X128.638 Y125.962 E14.00597
G1 X128.637 Y126.11 E14.01089
G1 X128.627 Y126.793 E14.03361
G1 X128.62 Y127.048 E14.0421
G1 X128.612 Y127.25 E14.04882
G1 X128.58 Y127.751 E14.06552
G1 X128.562 Y127.953 E14.07226
G1 X128.455 Y128.775 E14.09983
G1 X128.399 Y129.101 E14.11084
G1 X128.181 Y130.079 E14.14416
G1 X128.107 Y130.348 E14.15344
G1 X127.829 Y131.208 E14.1835
G1 X127.543 Y131.897 E14.20831
G1 X127.387 Y132.237 E14.22076
G1 X126.974 Y133.04 E14.25079
G1 X126.39 Y133.947 E14.28667
G1 X126.248 Y134.144 E14.29475
G1 X125.688 Y134.853 E14.3248
G1 X125.068 Y135.509 E14.35482
G1 X124.392 Y136.108 E14.38486
G1 X123.991 Y136.416 E14.40168
G1 X123.798 Y136.557 E14.40963
G1 X123.046 Y137.057 E14.43966
G1 X122.253 Y137.489 E14.4697
G1 X121.424 Y137.848 E14.49974
G1 X120.567 Y138.133 E14.52978
G1 X119.633 Y138.351 E14.56168
G1 X119.411 Y138.392 E14.56919
G1 X118.517 Y138.517 E14.59921
G1 X117.703 Y138.561 E14.62633
G1 X117.206 Y138.568 E14.64286
G1 X117.063 Y138.569 E14.64762
G1 X103.09 Y138.57 E15.11236
G1 X102.943 Y138.569 E15.11725
G1 X102.244 Y138.559 E15.1405
G1 X101.343 Y138.506 E15.17052
G1 X100.449 Y138.374 E15.20058
G1 X99.571 Y138.163 E15.23061
G1 X99.109 Y138.018 E15.24672
G1 X98.85 Y137.93 E15.25581
G1 X98.008 Y137.602 E15.28587
G1 X97.199 Y137.2 E15.31591
G1 X96.429 Y136.729 E15.34594
G1 X95.703 Y136.192 E15.37597
G1 X94.784 Y135.348 E15.41747
G1 X94.601 Y135.158 E15.42625
G1 X94.004 Y134.48 E15.45629
G1 X93.47 Y133.753 E15.48629
G1 X93.094 Y133.147 E15.51001
G1 X92.959 Y132.911 E15.51906
G1 X92.387 Y131.743 E15.56231
G1 X92.301 Y131.535 E15.5698
G1 X91.901 Y130.376 E15.61058
G1 X91.833 Y130.132 E15.619
G1 X91.636 Y129.285 E15.64793
G1 X91.583 Y129.004 E15.65744
G1 X91.461 Y128.174 E15.68534
G1 X91.436 Y127.935 E15.69333
G1 X91.383 Y127.056 E15.72262
G1 X91.362 Y125.879 E15.76178
G1 X91.36 Y125.696 E15.76786
G1 X91.362 Y94.008 E16.82181
G1 X91.363 Y93.853 E16.82696
G1 X91.373 Y93.2 E16.84869
G1 X91.381 Y92.931 E16.85764
G1 X91.39 Y92.715 E16.86483
G1 X91.436 Y92.08 E16.886
G1 X91.466 Y91.793 E16.8956
G1 X91.597 Y90.915 E16.92513
G1 X91.645 Y90.667 E16.93353
G1 X91.854 Y89.792 E16.96345
G1 X91.924 Y89.548 E16.97189
G1 X92.212 Y88.692 E17.00193
G1 X92.429 Y88.171 E17.0207
G1 X92.584 Y87.827 E17.03325
G1 X92.992 Y87.021 E17.0633
G1 X93.61 Y86.053 E17.1015
G1 X93.752 Y85.856 E17.10957
G1 X94.312 Y85.147 E17.13962
G1 F1500 E10.63962
;MESH:Squere_tubing_end_cap_35x15(1).stl
G0 F6000 X100.916 Y92.996
G0 X101.981 Y93.353
G0 X102.763 Y126.989
G0 X102.809 Y127.17
G0 X117.314 Y127.368
;TYPE:WALL-INNER
G1 F1500 E17.13962
G1 F1200 X102.686 Y127.37 E17.62615
G1 X102.666 Y127.319 E17.62797
G1 X102.622 Y127.162 E17.6334
G1 X102.593 Y127.008 E17.63861
G1 X102.567 Y126.779 E17.64628
G1 X102.56 Y126.586 E17.6527
G1 X102.562 Y93.342 E18.7584
G1 X102.573 Y93.147 E18.76489
G1 X102.59 Y93.006 E18.76962
G1 X102.622 Y92.838 E18.77531
G1 X102.666 Y92.681 E18.78073
G1 X102.686 Y92.631 E18.78252
G1 X117.314 Y92.631 E19.26905
G1 X117.331 Y92.673 E19.27056
G1 X117.377 Y92.835 E19.27616
G1 X117.408 Y92.996 E19.28161
G1 X117.432 Y93.202 E19.28851
G1 X117.44 Y93.414 E19.29557
G1 X117.438 Y126.658 E20.40127
G1 X117.427 Y126.853 E20.40776
G1 X117.411 Y126.986 E20.41222
G1 X117.378 Y127.162 E20.41817
G1 X117.334 Y127.319 E20.4236
G1 X117.314 Y127.368 E20.42536
G0 F6000 X117.713 Y127.448
G1 F1200 X117.656 Y127.592 E20.43051
G1 X117.596 Y127.704 E20.43473
G1 X117.548 Y127.768 E20.43739
G1 X102.454 Y127.77 E20.93942
G1 X102.404 Y127.704 E20.94218
G1 X102.344 Y127.592 E20.9464
G1 X102.287 Y127.448 E20.95155
G1 X102.238 Y127.27 E20.95769
G1 X102.232 Y127.251 E20.95836
G1 X102.196 Y127.062 E20.96476
G1 X102.168 Y126.812 E20.97312
G1 X102.16 Y126.586 E20.98064
G1 X102.162 Y93.342 E22.08634
G1 X102.175 Y93.11 E22.09407
G1 X102.194 Y92.949 E22.09946
G1 X102.232 Y92.749 E22.10624
G1 X102.287 Y92.552 E22.11304
G1 X102.344 Y92.408 E22.11819
G1 X102.404 Y92.296 E22.12242
G1 X102.453 Y92.231 E22.12512
G1 X117.547 Y92.231 E22.62715
G1 X117.596 Y92.296 E22.62986
G1 X117.655 Y92.405 E22.63398
G1 X117.713 Y92.552 E22.63924
G1 X117.724 Y92.595 E22.64071
G1 X117.767 Y92.742 E22.64581
G1 X117.803 Y92.931 E22.65221
G1 X117.828 Y93.157 E22.65977
G1 X117.832 Y93.188 E22.66081
G1 X117.84 Y93.414 E22.66833
G1 X117.838 Y126.658 E23.77403
G1 X117.825 Y126.89 E23.78176
G1 X117.806 Y127.051 E23.78715
G1 X117.768 Y127.251 E23.79392
G1 X117.713 Y127.448 E23.80072
G0 F6000 X117.683 Y128.157
;TYPE:WALL-OUTER
G1 F1200 X117.607 Y128.169 E23.80328
G1 X102.396 Y128.17 E24.3092
G1 X102.316 Y128.156 E24.3119
G1 X102.243 Y128.118 E24.31464
G1 X102.155 Y128.039 E24.31858
G1 X102.067 Y127.921 E24.32347
G1 X101.982 Y127.764 E24.32941
G1 X101.907 Y127.573 E24.33623
G1 X101.842 Y127.342 E24.34422
G1 X101.799 Y127.115 E24.3519
G1 X101.769 Y126.843 E24.361
G1 X101.76 Y126.586 E24.36955
G1 X101.762 Y93.342 E25.47525
G1 X101.777 Y93.076 E25.48412
G1 X101.799 Y92.885 E25.49051
G1 X101.842 Y92.658 E25.49819
G1 X101.907 Y92.427 E25.50618
G1 X101.982 Y92.236 E25.513
G1 X102.067 Y92.079 E25.51894
G1 X102.155 Y91.961 E25.52384
G1 X102.243 Y91.882 E25.52777
G1 X102.317 Y91.843 E25.53055
G1 X102.393 Y91.831 E25.53311
G1 X117.607 Y91.831 E26.03913
G1 X117.683 Y91.843 E26.04169
G1 X117.757 Y91.882 E26.04447
G1 X117.845 Y91.961 E26.0484
G1 X117.933 Y92.079 E26.0533
G1 X118.018 Y92.236 E26.05924
G1 X118.095 Y92.431 E26.06621
G1 X118.11 Y92.49 E26.06824
G1 X118.157 Y92.653 E26.07388
G1 X118.201 Y92.884 E26.0817
G1 X118.231 Y93.157 E26.09083
G1 X118.24 Y93.414 E26.09939
G1 X118.238 Y126.658 E27.20509
G1 X118.223 Y126.924 E27.21395
G1 X118.201 Y127.115 E27.22034
G1 X118.158 Y127.342 E27.22803
G1 X118.093 Y127.573 E27.23601
G1 X118.018 Y127.764 E27.24283
G1 X117.933 Y127.921 E27.24877
G1 X117.845 Y128.039 E27.25367
G1 X117.757 Y128.118 E27.2576
G1 X117.683 Y128.157 E27.26038
G0 F6000 X117.545 Y127.74
G0 X117.015 Y126.978
;TYPE:SKIN
G1 F1200 X102.985 Y126.98 E27.72702
G1 X102.977 Y126.936 E27.72851
G1 X102.956 Y126.742 E27.735
G1 X102.95 Y126.586 E27.74019
G1 X102.952 Y93.363 E28.84519
G1 X102.961 Y93.194 E28.85082
G1 X102.983 Y93.021 E28.85662
G1 X117.015 Y93.021 E29.32333
G1 X117.022 Y93.055 E29.32448
G1 X117.044 Y93.247 E29.33091
G1 X117.05 Y93.414 E29.33647
G1 X117.048 Y126.637 E30.44147
G1 X117.039 Y126.807 E30.44713
G1 X117.015 Y126.978 E30.45288
G0 F6000 X117.29 Y127.03
G0 X117.196 Y127.173
G0 X103.625 Y127.26
G0 X103.625 Y126.818
