;FLAVOR:Marlin
;TIME:5375
;Filament used: 2.34272m
;Layer height: 0.2
;MINX:80.017
;MINY:80.016
;MINZ:0.2
;MAXX:139.983
;MAXY:139.983
;MAXZ:28
;Generated with Cura_SteamEngine 4.4.1
M82 ;absolute extrusion mode
;Start preheat anton
M104 S200 ; Set Extruder temperature
M140 S60 ; Set Heat Bed temperature
M190 S60 ; Wait for Heat Bed temperature
M109 S200 ; Wait for Extruder temperature
;End of preheat anton
M201 X500.00 Y500.00 Z100.00 E5000.00 ;Setup machine max acceleration
M203 X500.00 Y500.00 Z10.00 E50.00 ;Setup machine max feedrate
M204 P500.00 R1000.00 T500.00 ;Setup Print/Retract/Travel acceleration
M205 X8.00 Y8.00 Z0.40 E5.00 ;Setup Jerk
M220 S100 ;Reset Feedrate
M221 S100 ;Reset Flowrate

G28 ;Home

G92 E0 ;Reset Extruder
G1 Z2.0 F3000 ;Move Z Axis up
G1 X10.1 Y20 Z0.28 F5000.0 ;Move to start position
G1 X10.1 Y200.0 Z0.28 F1500.0 E15 ;Draw the first line
G1 X10.4 Y200.0 Z0.28 F5000.0 ;Move to side a little
G1 X10.4 Y20 Z0.28 F1500.0 E30 ;Draw the second line
G92 E0 ;Reset Extruder
G1 Z2.0 F3000 ;Move Z Axis up
G92 E0
G92 E0
G1 F1500 E-6.5
;LAYER_COUNT:140
;LAYER:0
M107
G0 F6000 X87.349 Y90.563 Z0.2
;TYPE:SKIRT
G1 F1500 E0
G1 F1200 X90.632 Y87.28 E0.07721
G1 X90.735 Y87.179 E0.07961
G1 X91.214 Y86.713 E0.09072
G1 X91.898 Y86.103 E0.10596
G1 X92.633 Y85.556 E0.1212
G1 X93.626 Y84.958 E0.14048
G1 X94.333 Y84.584 E0.15378
G1 X94.476 Y84.51 E0.15646
G1 X98.558 Y82.43 E0.23265
G1 X98.676 Y82.37 E0.23485
G1 X99.32 Y82.052 E0.24679
G1 X100.159 Y81.683 E0.26203
G1 X101.026 Y81.388 E0.27726
G1 X102.165 Y81.123 E0.29671
G1 X102.945 Y80.987 E0.30988
G1 X103.108 Y80.96 E0.31263
G1 X107.678 Y80.237 E0.38957
G1 X107.819 Y80.216 E0.39194
G1 X108.491 Y80.119 E0.40323
G1 X109.403 Y80.027 E0.41848
G1 X110.319 Y80.016 E0.43371
G1 X111.468 Y80.115 E0.45289
G1 X112.249 Y80.226 E0.46601
G1 X112.415 Y80.251 E0.4688
G1 X116.986 Y80.975 E0.54576
G1 X117.134 Y81 E0.54826
G1 X117.804 Y81.116 E0.55957
G1 X118.699 Y81.311 E0.5748
G1 X119.574 Y81.584 E0.59004
G1 X120.637 Y82.035 E0.60925
G1 X121.373 Y82.396 E0.62288
G1 X121.515 Y82.467 E0.62552
G1 X125.633 Y84.565 E0.70238
G1 X125.759 Y84.63 E0.70474
G1 X126.323 Y84.927 E0.71534
G1 X127.115 Y85.389 E0.73058
G1 X127.863 Y85.918 E0.74582
G1 X128.691 Y86.632 E0.764
G1 X129.272 Y87.188 E0.77738
G1 X129.437 Y87.349 E0.78121
G1 X132.72 Y90.632 E0.85842
G1 X132.821 Y90.735 E0.86082
G1 X133.287 Y91.214 E0.87193
G1 X133.897 Y91.898 E0.88717
G1 X134.444 Y92.633 E0.90241
G1 X135.042 Y93.626 E0.92169
G1 X135.416 Y94.333 E0.93499
G1 X135.49 Y94.476 E0.93767
G1 X137.57 Y98.558 E1.01386
G1 X137.63 Y98.676 E1.01606
G1 X137.95 Y99.324 E1.02808
G1 X138.319 Y100.162 E1.0433
G1 X138.614 Y101.03 E1.05855
G1 X138.879 Y102.167 E1.07796
G1 X138.997 Y102.843 E1.08938
G1 X139.024 Y103.007 E1.09214
G1 X139.76 Y107.656 E1.17042
G1 X139.783 Y107.809 E1.17299
G1 X139.882 Y108.5 E1.1846
G1 X139.972 Y109.412 E1.19984
G1 X139.983 Y110.328 E1.21507
G1 X139.882 Y111.477 E1.23425
G1 X139.755 Y112.364 E1.24916
G1 X139.732 Y112.518 E1.25174
G1 X139.027 Y116.972 E1.32674
G1 X139.003 Y117.115 E1.32915
G1 X138.885 Y117.799 E1.34069
G1 X138.69 Y118.694 E1.35592
G1 X138.418 Y119.569 E1.37116
G1 X137.969 Y120.63 E1.39032
G1 X137.622 Y121.339 E1.40345
G1 X137.546 Y121.491 E1.40628
G1 X135.434 Y125.635 E1.48362
G1 X135.373 Y125.753 E1.48583
G1 X135.077 Y126.316 E1.49641
G1 X134.615 Y127.108 E1.51166
G1 X134.087 Y127.856 E1.52689
G1 X133.369 Y128.69 E1.54519
G1 X132.812 Y129.272 E1.55858
G1 X132.651 Y129.437 E1.56242
G1 X129.368 Y132.72 E1.63963
G1 X129.265 Y132.821 E1.64203
G1 X128.786 Y133.287 E1.65314
G1 X128.102 Y133.897 E1.66838
G1 X127.367 Y134.444 E1.68362
G1 X126.374 Y135.042 E1.7029
G1 X125.667 Y135.416 E1.7162
G1 X125.525 Y135.49 E1.71886
G1 X121.446 Y137.569 E1.795
G1 X121.322 Y137.631 E1.7973
G1 X120.671 Y137.952 E1.80937
G1 X119.832 Y138.321 E1.82462
G1 X118.964 Y138.616 E1.83986
G1 X117.833 Y138.879 E1.85917
G1 X117.157 Y138.997 E1.87058
G1 X116.993 Y139.024 E1.87335
G1 X112.344 Y139.76 E1.95162
G1 X112.191 Y139.783 E1.9542
G1 X111.5 Y139.882 E1.96581
G1 X110.588 Y139.972 E1.98105
G1 X109.672 Y139.983 E1.99628
G1 X108.523 Y139.882 E2.01546
G1 X107.636 Y139.755 E2.03036
G1 X107.482 Y139.732 E2.03295
G1 X103.028 Y139.027 E2.10795
G1 X102.896 Y139.005 E2.11017
G1 X102.225 Y138.89 E2.12149
G1 X101.33 Y138.696 E2.13672
G1 X100.455 Y138.425 E2.15195
G1 X99.356 Y137.959 E2.17181
G1 X98.291 Y137.434 E2.19155
G1 X98.167 Y137.371 E2.19387
G1 X94.401 Y135.452 E2.26416
G1 X94.266 Y135.382 E2.26669
G1 X93.658 Y135.061 E2.27812
G1 X92.867 Y134.599 E2.29335
G1 X92.119 Y134.069 E2.3086
G1 X91.283 Y133.346 E2.32698
G1 X90.714 Y132.799 E2.3401
G1 X90.566 Y132.654 E2.34355
G1 X87.28 Y129.368 E2.42083
G1 X87.164 Y129.249 E2.4236
G1 X86.697 Y128.767 E2.43476
G1 X86.089 Y128.082 E2.44999
G1 X85.542 Y127.346 E2.46524
G1 X84.99 Y126.434 E2.48297
G1 X84.719 Y125.93 E2.49248
G1 X84.611 Y125.724 E2.49635
G1 X82.414 Y121.412 E2.57683
G1 X82.342 Y121.268 E2.57951
G1 X82.038 Y120.648 E2.59099
G1 X81.671 Y119.808 E2.60624
G1 X81.379 Y118.94 E2.62147
G1 X81.124 Y117.841 E2.64023
G1 X81.003 Y117.152 E2.65186
G1 X80.974 Y116.979 E2.65478
G1 X80.24 Y112.345 E2.7328
G1 X80.217 Y112.191 E2.73539
G1 X80.118 Y111.5 E2.747
G1 X80.028 Y110.588 E2.76224
G1 X80.017 Y109.672 E2.77748
G1 X80.118 Y108.521 E2.79669
G1 X80.244 Y107.642 E2.81146
G1 X80.267 Y107.49 E2.81401
G1 X80.975 Y103.017 E2.88933
G1 X80.998 Y102.878 E2.89167
G1 X81.114 Y102.204 E2.90304
G1 X81.309 Y101.309 E2.91828
G1 X81.581 Y100.434 E2.93351
G1 X82.034 Y99.364 E2.95284
G1 X82.381 Y98.656 E2.96595
G1 X82.454 Y98.509 E2.96868
G1 X84.566 Y94.365 E3.04603
G1 X84.627 Y94.247 E3.04824
G1 X84.923 Y93.684 E3.05882
G1 X85.385 Y92.892 E3.07406
G1 X85.913 Y92.144 E3.08929
G1 X86.631 Y91.31 E3.10759
G1 X87.188 Y90.728 E3.12099
G1 X87.349 Y90.563 E3.12482
G0 F6000 X87.491 Y90.705
G1 F1200 X90.774 Y87.422 E3.20203
G1 X90.875 Y87.322 E3.2044
G1 X91.354 Y86.856 E3.21551
G1 X92.031 Y86.253 E3.23059
G1 X92.76 Y85.711 E3.24569
G1 X93.72 Y85.134 E3.26432
G1 X94.427 Y84.76 E3.27762
G1 X94.567 Y84.688 E3.28024
G1 X98.649 Y82.608 E3.35643
G1 X98.765 Y82.55 E3.35859
G1 X99.409 Y82.232 E3.37053
G1 X100.239 Y81.866 E3.38561
G1 X101.099 Y81.575 E3.40071
G1 X102.2 Y81.32 E3.41951
G1 X102.98 Y81.184 E3.43267
G1 X103.139 Y81.158 E3.43535
G1 X107.709 Y80.435 E3.5123
G1 X107.847 Y80.414 E3.51462
G1 X108.519 Y80.317 E3.52591
G1 X109.423 Y80.227 E3.54102
G1 X110.33 Y80.217 E3.5561
G1 X111.44 Y80.313 E3.57463
G1 X112.221 Y80.424 E3.58775
G1 X112.383 Y80.449 E3.59048
G1 X116.954 Y81.173 E3.66744
G1 X117.1 Y81.197 E3.6699
G1 X117.77 Y81.313 E3.68121
G1 X118.657 Y81.507 E3.69631
G1 X119.523 Y81.778 E3.7114
G1 X120.549 Y82.214 E3.72994
G1 X121.285 Y82.575 E3.74357
G1 X121.425 Y82.645 E3.74617
G1 X125.543 Y84.743 E3.82303
G1 X125.666 Y84.807 E3.82534
G1 X126.23 Y85.104 E3.83594
G1 X127.014 Y85.562 E3.85104
G1 X127.754 Y86.087 E3.86613
G1 X128.552 Y86.776 E3.88366
G1 X129.133 Y87.332 E3.89703
G1 X129.295 Y87.491 E3.90081
G1 X132.578 Y90.774 E3.97802
G1 X132.678 Y90.875 E3.98038
G1 X133.144 Y91.354 E3.9915
G1 X133.747 Y92.031 E4.00657
G1 X134.289 Y92.76 E4.02168
G1 X134.866 Y93.72 E4.04031
G1 X135.24 Y94.427 E4.05361
G1 X135.312 Y94.567 E4.05623
G1 X137.392 Y98.649 E4.13241
G1 X137.45 Y98.764 E4.13456
G1 X137.77 Y99.412 E4.14657
G1 X138.136 Y100.243 E4.16168
G1 X138.427 Y101.103 E4.17677
G1 X138.682 Y102.202 E4.19554
G1 X138.8 Y102.878 E4.20695
G1 X138.826 Y103.038 E4.20964
G1 X139.562 Y107.687 E4.28792
G1 X139.585 Y107.837 E4.29044
G1 X139.684 Y108.528 E4.30205
G1 X139.773 Y109.431 E4.31714
G1 X139.782 Y110.339 E4.33224
G1 X139.684 Y111.449 E4.35077
G1 X139.557 Y112.336 E4.36567
G1 X139.534 Y112.486 E4.3682
G1 X138.829 Y116.94 E4.44319
G1 X138.806 Y117.081 E4.44557
G1 X138.688 Y117.765 E4.45711
G1 X138.495 Y118.652 E4.47221
G1 X138.224 Y119.518 E4.4873
G1 X137.789 Y120.542 E4.5058
G1 X137.442 Y121.251 E4.51893
G1 X137.368 Y121.4 E4.52169
G1 X135.256 Y125.544 E4.59904
G1 X135.196 Y125.66 E4.60121
G1 X134.9 Y126.223 E4.61179
G1 X134.442 Y127.007 E4.62689
G1 X133.918 Y127.748 E4.64198
G1 X133.224 Y128.552 E4.65965
G1 X132.667 Y129.134 E4.67304
G1 X132.509 Y129.295 E4.67679
G1 X129.226 Y132.578 E4.75401
G1 X129.125 Y132.678 E4.75637
G1 X128.646 Y133.144 E4.76748
G1 X127.969 Y133.747 E4.78256
G1 X127.24 Y134.289 E4.79767
G1 X126.28 Y134.866 E4.81629
G1 X125.573 Y135.24 E4.82959
G1 X125.434 Y135.312 E4.8322
G1 X121.355 Y137.391 E4.90833
G1 X121.233 Y137.452 E4.9106
G1 X120.582 Y137.773 E4.92267
G1 X119.751 Y138.138 E4.93777
G1 X118.892 Y138.429 E4.95285
G1 X117.798 Y138.682 E4.97152
G1 X117.122 Y138.8 E4.98294
G1 X116.962 Y138.826 E4.98563
G1 X112.313 Y139.562 E5.06391
G1 X112.163 Y139.585 E5.06643
G1 X111.472 Y139.684 E5.07804
G1 X110.569 Y139.773 E5.09313
G1 X109.661 Y139.782 E5.10823
G1 X108.551 Y139.684 E5.12676
G1 X107.664 Y139.557 E5.14166
G1 X107.514 Y139.534 E5.14419
G1 X103.06 Y138.829 E5.21918
G1 X102.93 Y138.808 E5.22137
G1 X102.259 Y138.693 E5.23269
G1 X101.372 Y138.5 E5.24779
G1 X100.506 Y138.231 E5.26287
G1 X99.445 Y137.779 E5.28205
G1 X98.38 Y137.254 E5.30179
G1 X98.258 Y137.193 E5.30406
G1 X94.492 Y135.274 E5.37435
G1 X94.359 Y135.205 E5.37684
G1 X93.751 Y134.884 E5.38828
G1 X92.968 Y134.426 E5.40336
G1 X92.228 Y133.9 E5.41846
G1 X91.422 Y133.201 E5.4362
G1 X90.853 Y132.654 E5.44933
G1 X90.708 Y132.512 E5.4527
G1 X87.422 Y129.226 E5.52998
G1 X87.308 Y129.11 E5.53269
G1 X86.841 Y128.628 E5.54385
G1 X86.238 Y127.949 E5.55895
G1 X85.698 Y127.22 E5.57404
G1 X85.166 Y126.339 E5.59115
G1 X84.895 Y125.835 E5.60067
G1 X84.79 Y125.633 E5.60446
G1 X82.593 Y121.321 E5.68494
G1 X82.522 Y121.18 E5.68756
G1 X82.218 Y120.56 E5.69905
G1 X81.855 Y119.728 E5.71414
G1 X81.566 Y118.868 E5.72923
G1 X81.321 Y117.807 E5.74734
G1 X81.2 Y117.118 E5.75897
G1 X81.172 Y116.947 E5.76185
G1 X80.438 Y112.313 E5.83988
G1 X80.415 Y112.163 E5.8424
G1 X80.316 Y111.472 E5.85401
G1 X80.227 Y110.569 E5.8691
G1 X80.218 Y109.661 E5.8842
G1 X80.316 Y108.549 E5.90277
G1 X80.442 Y107.67 E5.91753
G1 X80.465 Y107.522 E5.92002
G1 X81.173 Y103.049 E5.99534
G1 X81.195 Y102.912 E5.99764
G1 X81.311 Y102.238 E6.00902
G1 X81.504 Y101.351 E6.02411
G1 X81.775 Y100.485 E6.0392
G1 X82.213 Y99.452 E6.05786
G1 X82.56 Y98.744 E6.07097
G1 X82.632 Y98.6 E6.07365
G1 X84.744 Y94.456 E6.151
G1 X84.804 Y94.34 E6.15317
G1 X85.1 Y93.777 E6.16375
G1 X85.558 Y92.993 E6.17885
G1 X86.082 Y92.252 E6.19394
G1 X86.776 Y91.448 E6.21161
G1 X87.333 Y90.866 E6.225
G1 X87.491 Y90.705 E6.22875
G0 F6000 X87.632 Y90.846
G1 F1200 X90.915 Y87.563 E6.30597
G1 X91.014 Y87.466 E6.30827
G1 X91.493 Y87 E6.31938
G1 X92.165 Y86.402 E6.33434
G1 X92.886 Y85.867 E6.34927
G1 X93.813 Y85.311 E6.36725
G1 X94.52 Y84.937 E6.38055
G1 X94.657 Y84.866 E6.38312
G1 X98.739 Y82.786 E6.45931
G1 X98.853 Y82.729 E6.46143
G1 X99.497 Y82.411 E6.47337
G1 X100.32 Y82.049 E6.48832
G1 X101.171 Y81.762 E6.50326
G1 X102.234 Y81.517 E6.5214
G1 X103.014 Y81.381 E6.53457
G1 X103.171 Y81.355 E6.53721
G1 X107.741 Y80.632 E6.61416
G1 X107.876 Y80.612 E6.61643
G1 X108.548 Y80.515 E6.62772
G1 X109.442 Y80.426 E6.64266
G1 X110.341 Y80.417 E6.65761
G1 X111.412 Y80.511 E6.67549
G1 X112.193 Y80.622 E6.68861
G1 X112.352 Y80.646 E6.69128
G1 X116.923 Y81.37 E6.76825
G1 X117.066 Y81.394 E6.77066
G1 X117.736 Y81.51 E6.78196
G1 X118.614 Y81.703 E6.79691
G1 X119.471 Y81.972 E6.81185
G1 X120.461 Y82.394 E6.82975
G1 X121.197 Y82.755 E6.84338
G1 X121.334 Y82.824 E6.84593
G1 X125.452 Y84.922 E6.92279
G1 X125.573 Y84.984 E6.92505
G1 X126.137 Y85.281 E6.93565
G1 X126.913 Y85.735 E6.9506
G1 X127.645 Y86.256 E6.96555
G1 X128.414 Y86.921 E6.98245
G1 X128.995 Y87.477 E6.99583
G1 X129.154 Y87.632 E6.99952
G1 X132.437 Y90.915 E7.07673
G1 X132.534 Y91.014 E7.07903
G1 X133 Y91.493 E7.09015
G1 X133.598 Y92.165 E7.10511
G1 X134.133 Y92.886 E7.12004
G1 X134.689 Y93.813 E7.13801
G1 X135.063 Y94.52 E7.15132
G1 X135.134 Y94.657 E7.15388
G1 X137.214 Y98.739 E7.23007
G1 X137.271 Y98.853 E7.23219
G1 X137.591 Y99.501 E7.24421
G1 X137.953 Y100.324 E7.25916
G1 X138.24 Y101.175 E7.2741
G1 X138.485 Y102.236 E7.29221
G1 X138.603 Y102.912 E7.30362
G1 X138.629 Y103.07 E7.30628
G1 X139.365 Y107.719 E7.38456
G1 X139.387 Y107.866 E7.38703
G1 X139.486 Y108.557 E7.39864
G1 X139.574 Y109.451 E7.41358
G1 X139.582 Y110.35 E7.42853
G1 X139.486 Y111.421 E7.44641
G1 X139.359 Y112.308 E7.46131
G1 X139.337 Y112.455 E7.46378
G1 X138.632 Y116.909 E7.53877
G1 X138.609 Y117.047 E7.5411
G1 X138.491 Y117.731 E7.55264
G1 X138.299 Y118.609 E7.56759
G1 X138.03 Y119.466 E7.58253
G1 X137.61 Y120.454 E7.60038
G1 X137.263 Y121.163 E7.61351
G1 X137.19 Y121.309 E7.61622
G1 X135.078 Y125.453 E7.69357
G1 X135.019 Y125.567 E7.69571
G1 X134.723 Y126.13 E7.70628
G1 X134.27 Y126.906 E7.72123
G1 X133.749 Y127.639 E7.73618
G1 X133.08 Y128.413 E7.7532
G1 X132.523 Y128.995 E7.76659
G1 X132.368 Y129.154 E7.77029
G1 X129.085 Y132.437 E7.8475
G1 X128.986 Y132.534 E7.8498
G1 X128.507 Y133 E7.86092
G1 X127.835 Y133.598 E7.87588
G1 X127.114 Y134.133 E7.89081
G1 X126.187 Y134.689 E7.90878
G1 X125.48 Y135.063 E7.92208
G1 X125.343 Y135.134 E7.92465
G1 X121.264 Y137.213 E8.00079
G1 X121.145 Y137.273 E8.003
G1 X120.494 Y137.594 E8.01507
G1 X119.671 Y137.955 E8.03002
G1 X118.819 Y138.241 E8.04496
G1 X117.764 Y138.485 E8.06297
G1 X117.088 Y138.603 E8.07438
G1 X116.93 Y138.629 E8.07705
G1 X112.281 Y139.365 E8.15532
G1 X112.134 Y139.387 E8.1578
G1 X111.443 Y139.486 E8.1694
G1 X110.549 Y139.574 E8.18434
G1 X109.65 Y139.582 E8.19929
G1 X108.579 Y139.486 E8.21718
G1 X107.692 Y139.359 E8.23208
G1 X107.545 Y139.337 E8.23455
G1 X103.091 Y138.632 E8.30954
G1 X102.964 Y138.611 E8.31168
G1 X102.293 Y138.496 E8.323
G1 X101.415 Y138.305 E8.33795
G1 X100.557 Y138.036 E8.3529
G1 X99.533 Y137.6 E8.37141
G1 X98.468 Y137.075 E8.39115
G1 X98.348 Y137.015 E8.39339
G1 X94.582 Y135.096 E8.46368
G1 X94.452 Y135.029 E8.46611
G1 X93.844 Y134.708 E8.47754
G1 X93.069 Y134.253 E8.49249
G1 X92.337 Y133.731 E8.50744
G1 X91.56 Y133.057 E8.52455
G1 X90.991 Y132.51 E8.53767
G1 X90.849 Y132.371 E8.54098
G1 X87.563 Y129.085 E8.61826
G1 X87.451 Y128.971 E8.62091
G1 X86.984 Y128.489 E8.63208
G1 X86.388 Y127.816 E8.64703
G1 X85.854 Y127.094 E8.66196
G1 X85.342 Y126.244 E8.67846
G1 X85.071 Y125.74 E8.68798
G1 X84.968 Y125.542 E8.69169
G1 X82.771 Y121.23 E8.77217
G1 X82.701 Y121.092 E8.77474
G1 X82.397 Y120.472 E8.78623
G1 X82.038 Y119.648 E8.80117
G1 X81.753 Y118.795 E8.81613
G1 X81.518 Y117.772 E8.83359
G1 X81.397 Y117.083 E8.84522
G1 X81.369 Y116.916 E8.84804
G1 X80.635 Y112.282 E8.92606
G1 X80.613 Y112.134 E8.92855
G1 X80.514 Y111.443 E8.94016
G1 X80.426 Y110.549 E8.9551
G1 X80.418 Y109.65 E8.97005
G1 X80.514 Y108.578 E8.98795
G1 X80.64 Y107.699 E9.00271
G1 X80.662 Y107.553 E9.00517
G1 X81.37 Y103.08 E9.08048
G1 X81.392 Y102.946 E9.08274
G1 X81.508 Y102.272 E9.09411
G1 X81.7 Y101.394 E9.10906
G1 X81.969 Y100.536 E9.12401
G1 X82.393 Y99.54 E9.14201
G1 X82.74 Y98.832 E9.15513
G1 X82.81 Y98.691 E9.15774
G1 X84.922 Y94.547 E9.23509
G1 X84.981 Y94.433 E9.23723
G1 X85.277 Y93.87 E9.24781
G1 X85.73 Y93.094 E9.26275
G1 X86.251 Y92.361 E9.2777
G1 X86.92 Y91.587 E9.29472
G1 X87.477 Y91.005 E9.30811
G1 X87.632 Y90.846 E9.31181
G1 F1500 E2.81181
G0 F6000 X97.11 Y100.637
G0 X96.974 Y100.542
G1 F1500 E9.31181
G1 F1200 X100.542 Y96.974 E9.39572
G1 X105.022 Y94.691 E9.47934
G1 X110 Y93.905 E9.56315
G1 X114.978 Y94.691 E9.64696
G1 X119.458 Y96.974 E9.73058
G1 X123.026 Y100.542 E9.81449
G1 X125.309 Y105.022 E9.89811
G1 X126.095 Y110 E9.98192
G1 X125.309 Y114.978 E10.06573
G1 X123.026 Y119.458 E10.14935
G1 X119.458 Y123.026 E10.23326
G1 X114.978 Y125.309 E10.31688
G1 X110 Y126.095 E10.40069
G1 X105.022 Y125.309 E10.4845
G1 X100.542 Y123.026 E10.56812
G1 X96.974 Y119.458 E10.65204
G1 X94.692 Y114.978 E10.73565
G1 X93.905 Y110 E10.81946
G1 X94.691 Y105.022 E10.90327
G1 X96.974 Y100.542 E10.98689
G0 F6000 X97.138 Y100.66
G1 F1200 X100.66 Y97.138 E11.06972
G1 X105.086 Y94.883 E11.15233
G1 X110 Y94.106 E11.23506
G1 X114.914 Y94.883 E11.3178
G1 X119.34 Y97.138 E11.40041
G1 X122.862 Y100.66 E11.48324
G1 X125.117 Y105.086 E11.56585
G1 X125.894 Y110 E11.64858
