;FLAVOR:Marlin
;TIME:10953
;Filament used: 10.5754m
;Layer height: 0.2
;MINX:38.56
;MINY:32.631
;MINZ:0.2
;MAXX:181.44
;MAXY:187.37
;MAXZ:13
;Generated with Cura_SteamEngine 4.4.1
M82 ;absolute extrusion mode
;Start preheat anton
M104 S200 ; Set Extruder temperature
M140 S60 ; Set Heat Bed temperature
M190 S60 ; Wait for Heat Bed temperature
M109 S200 ; Wait for Extruder temperature
;End of preheat anton
M201 X500.00 Y500.00 Z100.00 E5000.00 ;Setup machine max acceleration
M203 X500.00 Y500.00 Z10.00 E50.00 ;Setup machine max feedrate
M204 P500.00 R1000.00 T500.00 ;Setup Print/Retract/Travel acceleration
M205 X8.00 Y8.00 Z0.40 E5.00 ;Setup Jerk
M220 S100 ;Reset Feedrate
M221 S100 ;Reset Flowrate

G28 ;Home

G92 E0 ;Reset Extruder
G1 Z2.0 F3000 ;Move Z Axis up
G1 X10.1 Y20 Z0.28 F5000.0 ;Move to start position
G1 X10.1 Y200.0 Z0.28 F1500.0 E15 ;Draw the first line
G1 X10.4 Y200.0 Z0.28 F5000.0 ;Move to side a little
G1 X10.4 Y20 Z0.28 F1500.0 E30 ;Draw the second line
G92 E0 ;Reset Extruder
G1 Z2.0 F3000 ;Move Z Axis up
G92 E0
G92 E0
G1 F1500 E-6.5
;LAYER_COUNT:65
;LAYER:0
M107
G0 F6000 X44.755 Y82.135 Z0.2
;TYPE:SKIRT
G1 F1500 E0
G1 F1200 X45.959 Y81.535 E0.04474
G1 X48.458 Y80.476 E0.13501
G1 X50.739 Y79.432 E0.21845
G1 X53.006 Y78.316 E0.30249
G1 X55.237 Y77.138 E0.3864
G1 X57.425 Y75.902 E0.46999
G1 X59.555 Y74.619 E0.55269
G1 X61.706 Y73.238 E0.63771
G1 X63.771 Y71.829 E0.72085
G1 X65.799 Y70.358 E0.80418
G1 X67.816 Y68.807 E0.88881
G1 X69.746 Y67.236 E0.97158
G1 X71.655 Y65.588 E1.05546
G1 X73.532 Y63.873 E1.14002
G1 X75.334 Y62.13 E1.22341
G1 X77.09 Y60.334 E1.30695
G1 X78.796 Y58.487 E1.39058
G1 X80.462 Y56.576 E1.4749
G1 X82.053 Y54.644 E1.55814
G1 X83.585 Y52.673 E1.64117
G1 X85.081 Y50.633 E1.72531
G1 X86.524 Y48.541 E1.80984
G1 X87.88 Y46.455 E1.89259
G1 X89.212 Y44.271 E1.97767
G1 X90.447 Y42.108 E2.06052
G1 X91.613 Y39.931 E2.14266
G1 X92.117 Y38.958 E2.1791
G1 X92.583 Y38.144 E2.2103
G1 X92.966 Y37.577 E2.23306
G1 X93.106 Y37.383 E2.24101
G1 X93.687 Y36.647 E2.2722
G1 X94.328 Y35.962 E2.3034
G1 X95.026 Y35.335 E2.33461
G1 X95.537 Y34.938 E2.35613
G1 X95.73 Y34.797 E2.36408
G1 X96.51 Y34.276 E2.39528
G1 X97.332 Y33.824 E2.42648
G1 X98.189 Y33.444 E2.45766
G1 X99.076 Y33.138 E2.48887
G1 X100.221 Y32.862 E2.52804
G1 X100.443 Y32.821 E2.53555
G1 X101.372 Y32.69 E2.56675
G1 X102.285 Y32.639 E2.59717
G1 X102.779 Y32.632 E2.6136
G1 X102.935 Y32.631 E2.61879
G1 X116.914 Y32.631 E3.08373
G1 X117.072 Y32.632 E3.08899
G1 X117.77 Y32.642 E3.11221
G1 X118.706 Y32.696 E3.14339
G1 X119.634 Y32.828 E3.17457
G1 X120.548 Y33.04 E3.20577
G1 X121.494 Y33.349 E3.23887
G1 X121.775 Y33.455 E3.24886
G1 X122.638 Y33.823 E3.28007
G1 X123.466 Y34.263 E3.31125
G1 X124.254 Y34.773 E3.34247
G1 X124.995 Y35.347 E3.37365
G1 X125.894 Y36.199 E3.41484
G1 X126.044 Y36.358 E3.42211
G1 X126.658 Y37.067 E3.45331
G1 X127.21 Y37.825 E3.4845
G1 X127.578 Y38.421 E3.50779
G1 X127.769 Y38.753 E3.52053
G1 X127.993 Y39.162 E3.53604
G1 X128.455 Y40.051 E3.56936
G1 X129.698 Y42.359 E3.65655
G1 X130.932 Y44.502 E3.7388
G1 X132.269 Y46.679 E3.82377
G1 X133.644 Y48.781 E3.90732
G1 X135.066 Y50.828 E3.99022
G1 X136.576 Y52.877 E4.07487
G1 X138.109 Y54.836 E4.15761
G1 X139.72 Y56.78 E4.24158
G1 X141.387 Y58.678 E4.3256
G1 X143.12 Y60.544 E4.4103
G1 X144.83 Y62.284 E4.49144
G1 X146.696 Y64.078 E4.57754
G1 X148.52 Y65.734 E4.65948
G1 X150.465 Y67.402 E4.7447
G1 X152.412 Y68.98 E4.82805
G1 X154.425 Y70.517 E4.91229
G1 X156.456 Y71.98 E4.99554
G1 X158.504 Y73.368 E5.07783
G1 X160.673 Y74.752 E5.16341
G1 X162.811 Y76.031 E5.24627
G1 X165.024 Y77.271 E5.33064
G1 X167.252 Y78.439 E5.41431
G1 X169.502 Y79.539 E5.49761
G1 X171.769 Y80.568 E5.58042
G1 X172.691 Y80.952 E5.61364
G1 X172.834 Y81.013 E5.61881
G1 X173.96 Y81.501 E5.65962
G1 X174.505 Y81.755 E5.67962
G1 X174.813 Y81.909 E5.69107
G1 X175.634 Y82.364 E5.72229
G1 X176.412 Y82.887 E5.75347
G1 X177.143 Y83.475 E5.78468
G1 X177.897 Y84.201 E5.81949
G1 X178.046 Y84.359 E5.82671
G1 X178.66 Y85.068 E5.85791
G1 X179.211 Y85.827 E5.8891
G1 X179.56 Y86.39 E5.91114
G1 X179.702 Y86.635 E5.92055
G1 X180.137 Y87.466 E5.95175
G1 X180.34 Y87.924 E5.96841
G1 X180.427 Y88.133 E5.97594
G1 X180.849 Y89.338 E6.01841
G1 X180.913 Y89.562 E6.02616
G1 X181.127 Y90.451 E6.05657
G1 X181.178 Y90.709 E6.06532
G1 X181.318 Y91.61 E6.09564
G1 X181.35 Y91.894 E6.10515
G1 X181.417 Y92.926 E6.13955
G1 X181.438 Y94.079 E6.1779
G1 X181.44 Y94.28 E6.18459
G1 X181.438 Y125.962 E7.23833
G1 X181.437 Y126.122 E7.24366
G1 X181.427 Y126.805 E7.26638
G1 X181.419 Y127.079 E7.27549
G1 X181.411 Y127.281 E7.28222
G1 X181.377 Y127.822 E7.30025
G1 X181.359 Y128.024 E7.30699
G1 X181.241 Y128.92 E7.33705
G1 X181.184 Y129.25 E7.34819
G1 X180.937 Y130.345 E7.38552
G1 X180.865 Y130.602 E7.3944
G1 X180.574 Y131.494 E7.42561
G1 X180.3 Y132.159 E7.44953
G1 X180.143 Y132.507 E7.46223
G1 X179.721 Y133.344 E7.4934
G1 X179.039 Y134.415 E7.53563
G1 X178.897 Y134.612 E7.54371
G1 X178.317 Y135.349 E7.5749
G1 X177.676 Y136.034 E7.60611
G1 X176.979 Y136.661 E7.63729
G1 X176.26 Y137.207 E7.66732
G1 X176.036 Y137.363 E7.6764
G1 X175.245 Y137.865 E7.70755
G1 X174.041 Y138.465 E7.7523
G1 X171.542 Y139.524 E7.84257
G1 X169.261 Y140.568 E7.926
G1 X166.994 Y141.684 E8.01005
G1 X164.763 Y142.862 E8.09396
G1 X162.575 Y144.098 E8.17754
G1 X160.445 Y145.381 E8.26024
G1 X158.294 Y146.762 E8.34526
G1 X156.229 Y148.171 E8.42841
G1 X154.201 Y149.642 E8.51174
G1 X152.184 Y151.193 E8.59636
G1 X150.254 Y152.764 E8.67913
G1 X148.345 Y154.412 E8.76301
G1 X146.468 Y156.127 E8.84758
G1 X144.666 Y157.87 E8.93096
G1 X142.91 Y159.666 E9.0145
G1 X141.204 Y161.513 E9.09813
G1 X139.538 Y163.424 E9.18245
G1 X137.947 Y165.356 E9.2657
G1 X136.415 Y167.327 E9.34873
G1 X134.919 Y169.367 E9.43287
G1 X133.476 Y171.459 E9.51739
G1 X132.12 Y173.545 E9.60014
G1 X130.788 Y175.729 E9.68523
G1 X129.558 Y177.883 E9.76773
G1 X128.397 Y180.049 E9.84947
G1 X127.883 Y181.042 E9.88666
G1 X127.417 Y181.856 E9.91785
G1 X127.034 Y182.423 E9.94061
G1 X126.894 Y182.617 E9.94857
G1 X126.313 Y183.353 E9.97975
G1 X125.672 Y184.038 E10.01096
G1 X124.974 Y184.665 E10.04216
G1 X124.463 Y185.062 E10.06369
G1 X124.27 Y185.203 E10.07164
G1 X123.49 Y185.724 E10.10283
G1 X122.668 Y186.176 E10.13403
G1 X121.811 Y186.556 E10.16522
G1 X120.924 Y186.862 E10.19642
G1 X119.779 Y187.138 E10.2356
G1 X119.557 Y187.179 E10.24311
G1 X118.628 Y187.31 E10.27431
G1 X117.714 Y187.361 E10.30476
G1 X117.217 Y187.368 E10.32129
G1 X117.063 Y187.369 E10.32641
G1 X103.09 Y187.37 E10.79115
G1 X102.931 Y187.369 E10.79644
G1 X102.235 Y187.359 E10.81959
G1 X101.929 Y187.35 E10.82978
G1 X100.858 Y187.305 E10.86543
G1 X98.217 Y187.231 E10.9533
G1 X95.694 Y187.231 E11.03722
G1 X93.205 Y187.302 E11.12004
G1 X92.794 Y187.324 E11.13373
G1 X92.608 Y187.332 E11.13992
G1 X91.881 Y187.358 E11.16411
G1 X91.591 Y187.365 E11.17376
G1 X91.165 Y187.369 E11.18793
G1 X91.063 Y187.369 E11.19133
G1 X77.09 Y187.37 E11.65607
G1 X76.932 Y187.369 E11.66132
G1 X76.233 Y187.359 E11.68458
G1 X75.296 Y187.305 E11.71579
G1 X74.368 Y187.173 E11.74697
G1 X73.454 Y186.961 E11.77817
G1 X72.851 Y186.775 E11.79916
G1 X72.592 Y186.687 E11.80826
G1 X71.718 Y186.348 E11.83944
G1 X70.876 Y185.935 E11.87063
G1 X70.072 Y185.453 E11.90181
G1 X69.312 Y184.903 E11.93301
G1 X68.601 Y184.291 E11.96422
G1 X68.209 Y183.904 E11.98254
G1 X68.025 Y183.713 E11.99136
G1 X67.404 Y183.01 E12.02256
G1 X66.845 Y182.257 E12.05375
G1 X66.391 Y181.53 E12.08226
G1 X66.257 Y181.295 E12.09125
G1 X65.648 Y180.049 E12.13738
G1 X65.562 Y179.841 E12.14487
G1 X65.132 Y178.597 E12.18864
G1 X65.058 Y178.332 E12.1978
G1 X64.943 Y177.883 E12.21321
G1 X64.846 Y177.467 E12.22742
G1 X64.209 Y174.919 E12.31477
G1 X63.537 Y172.524 E12.39751
G1 X62.784 Y170.101 E12.4819
G1 X61.973 Y167.734 E12.56512
G1 X61.088 Y165.369 E12.64911
G1 X60.14 Y163.039 E12.73277
G1 X59.126 Y160.736 E12.81647
G1 X58.042 Y158.452 E12.90055
G1 X56.906 Y156.222 E12.98379
G1 X55.694 Y154.002 E13.06792
G1 X54.422 Y151.821 E13.15189
G1 X53.097 Y149.689 E13.23538
G1 X51.718 Y147.606 E13.31847
G1 X50.265 Y145.539 E13.4025
G1 X48.757 Y143.517 E13.4864
G1 X47.211 Y141.563 E13.56927
G1 X45.583 Y139.62 E13.65358
G1 X43.885 Y137.709 E13.73861
G1 X42.102 Y135.81 E13.82525
G1 X41.839 Y135.52 E13.83827
G1 X41.672 Y135.329 E13.84671
G1 X41.085 Y134.598 E13.87789
G1 X40.422 Y133.58 E13.91829
G1 X40.282 Y133.337 E13.92762
G1 X39.849 Y132.505 E13.95882
G1 X39.648 Y132.049 E13.97539
G1 X39.562 Y131.841 E13.98288
G1 X39.137 Y130.614 E14.02607
G1 X39.069 Y130.372 E14.03443
G1 X38.847 Y129.421 E14.06691
G1 X38.794 Y129.138 E14.07649
G1 X38.666 Y128.262 E14.10593
G1 X38.641 Y128.024 E14.11389
G1 X38.583 Y127.071 E14.14565
G1 X38.562 Y125.893 E14.18483
G1 X38.56 Y125.696 E14.19139
G1 X38.562 Y94.008 E15.24533
G1 X38.563 Y93.841 E15.25089
G1 X38.573 Y93.188 E15.27261
G1 X38.582 Y92.898 E15.28226
G1 X38.591 Y92.682 E15.28945
G1 X38.641 Y91.996 E15.31233
G1 X38.671 Y91.709 E15.32192
G1 X38.811 Y90.763 E15.35373
G1 X38.859 Y90.515 E15.36213
G1 X39.086 Y89.572 E15.39439
G1 X39.156 Y89.328 E15.40283
G1 X39.452 Y88.438 E15.43403
G1 X39.7 Y87.842 E15.4555
G1 X39.855 Y87.498 E15.46805
G1 X40.276 Y86.66 E15.49924
G1 X40.961 Y85.585 E15.54164
G1 X41.103 Y85.388 E15.54972
G1 X41.683 Y84.651 E15.58091
G1 X42.324 Y83.966 E15.61211
G1 X43.021 Y83.339 E15.64329
G1 X43.74 Y82.793 E15.67332
G1 X43.964 Y82.637 E15.6824
G1 X44.755 Y82.135 E15.71356
G0 F6000 X44.97 Y82.473
G1 F1200 X46.115 Y81.904 E15.75609
G1 X48.615 Y80.845 E15.84639
G1 X50.903 Y79.797 E15.93009
G1 X53.177 Y78.678 E16.01439
G1 X55.413 Y77.497 E16.09849
G1 X57.622 Y76.249 E16.18288
G1 X59.797 Y74.939 E16.26733
G1 X61.918 Y73.578 E16.35115
G1 X64.009 Y72.15 E16.43536
G1 X66.032 Y70.684 E16.51846
G1 X68.049 Y69.132 E16.60311
G1 X70.031 Y67.518 E16.68812
G1 X71.923 Y65.886 E16.77122
G1 X73.779 Y64.19 E16.85485
G1 X75.615 Y62.414 E16.93981
G1 X77.387 Y60.601 E17.02413
G1 X79.091 Y58.757 E17.10763
G1 X80.756 Y56.848 E17.19188
G1 X82.361 Y54.898 E17.27589
G1 X83.925 Y52.886 E17.36065
G1 X85.417 Y50.85 E17.4446
G1 X86.84 Y48.789 E17.5279
G1 X88.229 Y46.651 E17.6127
G1 X89.542 Y44.497 E17.6966
G1 X90.797 Y42.301 E17.78073
G1 X91.978 Y40.097 E17.86389
G1 X92.472 Y39.142 E17.89966
G1 X92.93 Y38.343 E17.93029
G1 X93.29 Y37.811 E17.95165
G1 X93.43 Y37.617 E17.95961
G1 X94.001 Y36.895 E17.99022
G1 X94.632 Y36.224 E18.02086
G1 X95.319 Y35.611 E18.05148
G1 X95.773 Y35.261 E18.07055
G1 X95.966 Y35.12 E18.0785
G1 X96.732 Y34.61 E18.10911
G1 X97.54 Y34.168 E18.13974
G1 X98.383 Y33.798 E18.17036
G1 X99.255 Y33.502 E18.20099
G1 X100.294 Y33.255 E18.23651
G1 X100.516 Y33.214 E18.24402
G1 X101.428 Y33.087 E18.27464
G1 X102.291 Y33.039 E18.30339
G1 X102.785 Y33.032 E18.31982
G1 X102.935 Y33.031 E18.32481
G1 X116.914 Y33.031 E18.78976
G1 X117.066 Y33.032 E18.79481
G1 X117.764 Y33.042 E18.81803
G1 X118.683 Y33.095 E18.84865
G1 X119.594 Y33.228 E18.87927
G1 X120.49 Y33.439 E18.90988
G1 X121.353 Y33.723 E18.9401
G1 X121.634 Y33.829 E18.95009
G1 X122.481 Y34.191 E18.98073
G1 X123.293 Y34.625 E19.01135
G1 X124.064 Y35.128 E19.04197
G1 X124.788 Y35.696 E19.07257
G1 X125.603 Y36.473 E19.11003
G1 X125.753 Y36.632 E19.1173
G1 X126.355 Y37.329 E19.14793
G1 X126.895 Y38.075 E19.17856
G1 X127.231 Y38.62 E19.19985
G1 X127.422 Y38.952 E19.21259
G1 X127.638 Y39.346 E19.22754
G1 X128.107 Y40.247 E19.26132
G1 X129.349 Y42.553 E19.34844
G1 X130.587 Y44.705 E19.43101
G1 X131.936 Y46.901 E19.51673
G1 X133.297 Y48.982 E19.59943
G1 X134.761 Y51.089 E19.68477
G1 X136.242 Y53.099 E19.76781
G1 X137.801 Y55.092 E19.85197
G1 X139.428 Y57.053 E19.93672
G1 X141.094 Y58.951 E20.02071
G1 X142.806 Y60.795 E20.1044
G1 X144.568 Y62.587 E20.18799
G1 X146.414 Y64.362 E20.27317
G1 X148.274 Y66.051 E20.35673
G1 X150.198 Y67.701 E20.44103
G1 X152.162 Y69.293 E20.52512
G1 X154.171 Y70.827 E20.60919
G1 X156.227 Y72.308 E20.69347
G1 X158.311 Y73.72 E20.7772
G1 X160.458 Y75.09 E20.8619
G1 X162.605 Y76.374 E20.94511
G1 X164.822 Y77.616 E21.02963
G1 X167.069 Y78.795 E21.11403
G1 X169.326 Y79.898 E21.19758
G1 X171.615 Y80.937 E21.28119
G1 X172.537 Y81.321 E21.31441
G1 X172.675 Y81.38 E21.3194
G1 X173.801 Y81.868 E21.36022
G1 X174.326 Y82.113 E21.37949
G1 X174.634 Y82.267 E21.39094
G1 X175.439 Y82.714 E21.42157
G1 X176.202 Y83.229 E21.45218
G1 X176.918 Y83.809 E21.48283
G1 X177.606 Y84.476 E21.5147
G1 X177.755 Y84.634 E21.52192
G1 X178.357 Y85.33 E21.55253
G1 X178.896 Y86.076 E21.58314
G1 X179.214 Y86.591 E21.60327
G1 X179.356 Y86.836 E21.61269
G1 X179.783 Y87.651 E21.64329
G1 X179.971 Y88.077 E21.65878
G1 X180.058 Y88.286 E21.66631
G1 X180.464 Y89.448 E21.70725
G1 X180.528 Y89.672 E21.715
G1 X180.735 Y90.528 E21.74429
G1 X180.786 Y90.786 E21.75304
G1 X180.92 Y91.655 E21.78228
G1 X180.952 Y91.939 E21.79179
G1 X181.017 Y92.933 E21.82492
G1 X181.038 Y94.086 E21.86327
G1 X181.04 Y94.28 E21.86973
G1 X181.038 Y125.962 E22.92347
G1 X181.037 Y126.116 E22.9286
G1 X181.027 Y126.799 E22.95132
G1 X181.02 Y127.063 E22.9601
G1 X181.012 Y127.265 E22.96682
G1 X180.978 Y127.787 E22.98422
G1 X180.96 Y127.989 E22.99097
G1 X180.847 Y128.852 E23.01992
G1 X180.79 Y129.182 E23.03105
G1 X180.552 Y130.238 E23.06706
G1 X180.48 Y130.495 E23.07594
G1 X180.193 Y131.369 E23.10653
G1 X179.935 Y131.994 E23.12902
G1 X179.778 Y132.342 E23.14172
G1 X179.364 Y133.164 E23.17233
G1 X178.715 Y134.181 E23.21246
G1 X178.573 Y134.378 E23.22053
G1 X178.003 Y135.101 E23.25116
G1 X177.372 Y135.772 E23.28179
G1 X176.685 Y136.385 E23.31241
G1 X176.032 Y136.878 E23.33963
G1 X175.808 Y137.034 E23.34871
G1 X175.03 Y137.527 E23.37934
G1 X173.885 Y138.096 E23.42187
G1 X171.385 Y139.155 E23.51217
G1 X169.097 Y140.203 E23.59587
G1 X166.823 Y141.322 E23.68017
G1 X164.587 Y142.503 E23.76427
G1 X162.378 Y143.751 E23.84866
G1 X160.203 Y145.061 E23.93311
G1 X158.082 Y146.422 E24.01693
G1 X155.991 Y147.85 E24.10114
G1 X153.968 Y149.316 E24.18424
G1 X151.951 Y150.868 E24.26889
G1 X149.969 Y152.482 E24.3539
G1 X148.077 Y154.114 E24.437
G1 X146.221 Y155.81 E24.52063
G1 X144.385 Y157.586 E24.60559
G1 X142.613 Y159.399 E24.68991
G1 X140.909 Y161.243 E24.77342
G1 X139.244 Y163.152 E24.85767
G1 X137.639 Y165.102 E24.94167
G1 X136.075 Y167.114 E25.02643
G1 X134.583 Y169.15 E25.11038
G1 X133.16 Y171.211 E25.19368
G1 X131.771 Y173.349 E25.27848
G1 X130.458 Y175.503 E25.36238
G1 X129.203 Y177.699 E25.44651
G1 X128.026 Y179.896 E25.52941
G1 X127.528 Y180.858 E25.56544
G1 X127.07 Y181.657 E25.59607
G1 X126.71 Y182.189 E25.61743
G1 X126.57 Y182.383 E25.62539
G1 X125.999 Y183.105 E25.65601
G1 X125.368 Y183.776 E25.68664
G1 X124.681 Y184.389 E25.71726
G1 X124.227 Y184.739 E25.73633
G1 X124.034 Y184.88 E25.74428
G1 X123.268 Y185.39 E25.77489
G1 X122.46 Y185.832 E25.80552
G1 X121.617 Y186.202 E25.83614
G1 X120.745 Y186.498 E25.86677
G1 X119.706 Y186.745 E25.90229
G1 X119.484 Y186.786 E25.9098
G1 X118.572 Y186.913 E25.94042
G1 X117.708 Y186.961 E25.9692
G1 X117.211 Y186.968 E25.98574
G1 X117.063 Y186.969 E25.99066
G1 X103.09 Y186.97 E26.4554
G1 X102.937 Y186.969 E26.46049
G1 X102.241 Y186.959 E26.48364
G1 X101.946 Y186.951 E26.49346
G1 X100.817 Y186.903 E26.53104
G1 X98.228 Y186.831 E26.61719
G1 X95.717 Y186.831 E26.7007
G1 X93.13 Y186.905 E26.78678
G1 X92.773 Y186.924 E26.79867
G1 X92.594 Y186.932 E26.80463
G1 X91.867 Y186.958 E26.82883
G1 X91.588 Y186.965 E26.83811
G1 X91.162 Y186.969 E26.85228
G1 X91.063 Y186.969 E26.85557
G1 X77.09 Y186.97 E27.32032
G1 X76.937 Y186.969 E27.32541
G1 X76.238 Y186.959 E27.34866
G1 X75.319 Y186.906 E27.37927
G1 X74.408 Y186.773 E27.4099
G1 X73.512 Y186.562 E27.44051
G1 X72.98 Y186.396 E27.45905
G1 X72.721 Y186.308 E27.46815
G1 X71.863 Y185.975 E27.49876
G1 X71.037 Y185.568 E27.52938
G1 X70.25 Y185.091 E27.55999
G1 X69.507 Y184.547 E27.59062
G1 X68.497 Y183.626 E27.63608
G1 X68.313 Y183.435 E27.6449
G1 X67.704 Y182.745 E27.67551
G1 X67.157 Y182.005 E27.70612
G1 X66.739 Y181.332 E27.73247
G1 X66.605 Y181.097 E27.74147
G1 X66.017 Y179.896 E27.78594
G1 X65.931 Y179.688 E27.79343
G1 X65.518 Y178.489 E27.83561
G1 X65.444 Y178.224 E27.84476
G1 X65.333 Y177.792 E27.85959
G1 X65.249 Y177.432 E27.87189
G1 X64.596 Y174.82 E27.96144
