;FLAVOR:Marlin
;TIME:11931
;Filament used: 10.0146m
;Layer height: 0.15
;MINX:55.384
;MINY:60.885
;MINZ:0.3
;MAXX:164.615
;MAXY:159.116
;MAXZ:19.95
;Generated with Cura_SteamEngine 4.4.1
M140 S60
M105
M190 S60
M104 S200
M105
M109 S200
M82 ;absolute extrusion mode
G28 ;Home
G1 Z15.0 F6000 ;Move the platform down 15mm
;Prime the extruder
G92 E0
G1 F200 E3
G92 E0
G92 E0
G28 ;Home
G1 Z15.0 F6000 ;Move the platform down 15mm
;Prime the extruder
G92 E0
G1 F200 E3
G92 E0
G92 E0
G1 F1500 E-6.5
;LAYER_COUNT:132
;LAYER:0
M107
G0 F3600 X58.209 Y63.103 Z0.3
;TYPE:SKIRT
G1 F1500 E0
G1 F1800 X58.31 Y63.014 E0.00672
G1 X58.928 Y62.522 E0.04613
G1 X59.593 Y62.096 E0.08553
G1 X60.578 Y61.621 E0.14008
G1 X61.032 Y61.44 E0.16447
G1 X61.78 Y61.185 E0.20389
G1 X62.549 Y61.007 E0.24327
G1 X63.333 Y60.907 E0.28271
G1 X63.921 Y60.885 E0.31206
G1 X156.083 Y60.885 E4.91004
G1 X156.872 Y60.925 E4.94946
G1 X157.652 Y61.044 E4.98882
G1 X158.417 Y61.242 E5.02824
G1 X159.157 Y61.516 E5.06761
G1 X159.637 Y61.742 E5.09408
G1 X160.188 Y62.024 E5.12496
G1 X160.871 Y62.418 E5.1643
G1 X161.512 Y62.88 E5.20372
G1 X162.102 Y63.405 E5.24312
G1 X162.637 Y63.986 E5.28253
G1 X163.11 Y64.619 E5.32195
G1 X163.516 Y65.296 E5.36133
G1 X163.879 Y66.078 E5.40434
G1 X164.06 Y66.532 E5.42873
G1 X164.315 Y67.28 E5.46816
G1 X164.493 Y68.049 E5.50754
G1 X164.593 Y68.833 E5.54697
G1 X164.615 Y69.421 E5.57632
G1 X164.615 Y150.58 E9.62536
G1 X164.575 Y151.369 E9.66478
G1 X164.456 Y152.149 E9.70414
G1 X164.258 Y152.914 E9.74356
G1 X164.018 Y153.574 E9.7786
G1 X163.816 Y154.06 E9.80486
G1 X163.476 Y154.773 E9.84427
G1 X163.066 Y155.448 E9.88367
G1 X162.59 Y156.078 E9.92306
G1 X162.053 Y156.656 E9.96242
G1 X161.745 Y156.94 E9.98332
G1 X161.642 Y157.03 E9.99015
G1 X161.022 Y157.518 E10.02951
G1 X160.356 Y157.942 E10.0689
G1 X159.65 Y158.296 E10.1083
G1 X159.215 Y158.472 E10.13172
G1 X158.785 Y158.631 E10.15459
G1 X158.032 Y158.867 E10.19396
G1 X157.258 Y159.026 E10.23338
G1 X156.08 Y159.115 E10.29232
G1 X88.926 Y159.115 E13.64264
G1 X63.918 Y159.116 E14.8903
G1 X63.129 Y159.076 E14.92971
G1 X62.349 Y158.957 E14.96908
G1 X61.584 Y158.759 E15.0085
G1 X60.916 Y158.515 E15.04398
G1 X60.434 Y158.314 E15.07003
G1 X59.721 Y157.974 E15.10944
G1 X59.047 Y157.563 E15.14883
G1 X58.417 Y157.086 E15.18825
G1 X57.839 Y156.548 E15.22765
G1 X57.569 Y156.255 E15.24752
G1 X57.477 Y156.15 E15.25449
G1 X56.988 Y155.531 E15.29385
G1 X56.563 Y154.865 E15.33326
G1 X56.208 Y154.16 E15.37264
G1 X56.028 Y153.715 E15.39659
G1 X55.869 Y153.285 E15.41946
G1 X55.633 Y152.532 E15.45883
G1 X55.474 Y151.758 E15.49825
G1 X55.385 Y150.58 E15.55719
G1 X55.385 Y91.44 E18.5077
G1 X55.384 Y69.418 E19.60638
G1 X55.424 Y68.629 E19.64579
G1 X55.543 Y67.849 E19.68516
G1 X55.741 Y67.084 E19.72458
G1 X55.925 Y66.564 E19.7521
G1 X56.107 Y66.101 E19.77692
G1 X56.432 Y65.382 E19.81629
G1 X56.829 Y64.699 E19.8557
G1 X57.293 Y64.06 E19.8951
G1 X57.819 Y63.471 E19.93449
G1 X58.209 Y63.103 E19.96125
G0 F3600 X58.474 Y63.403
G1 F1800 X58.575 Y63.314 E19.96796
G1 X59.177 Y62.836 E20.00631
G1 X59.826 Y62.423 E20.04469
G1 X60.727 Y61.992 E20.09452
G1 X61.181 Y61.811 E20.11891
G1 X61.909 Y61.564 E20.15726
G1 X62.659 Y61.393 E20.19564
G1 X63.423 Y61.302 E20.23402
G1 X63.921 Y61.285 E20.25888
G1 X156.083 Y61.285 E24.85686
G1 X156.851 Y61.325 E24.89523
G1 X157.611 Y61.444 E24.93361
G1 X158.354 Y61.642 E24.97197
G1 X159.073 Y61.916 E25.01036
G1 X159.454 Y62.098 E25.03142
G1 X160.005 Y62.38 E25.0623
G1 X160.671 Y62.765 E25.10068
G1 X161.293 Y63.218 E25.13907
G1 X161.865 Y63.732 E25.17744
G1 X162.38 Y64.304 E25.21584
G1 X162.833 Y64.925 E25.25419
G1 X163.219 Y65.59 E25.29255
G1 X163.508 Y66.227 E25.32745
G1 X163.689 Y66.681 E25.35183
G1 X163.936 Y67.409 E25.39018
G1 X164.107 Y68.159 E25.42856
G1 X164.198 Y68.923 E25.46695
G1 X164.215 Y69.421 E25.49181
G1 X164.215 Y150.58 E29.54085
G1 X164.175 Y151.348 E29.57921
G1 X164.056 Y152.108 E29.61759
G1 X163.858 Y152.851 E29.65595
G1 X163.648 Y153.42 E29.68621
G1 X163.446 Y153.906 E29.71247
G1 X163.115 Y154.6 E29.75083
G1 X162.713 Y155.256 E29.78922
G1 X162.245 Y155.866 E29.82757
G1 X161.482 Y156.638 E29.88173
G1 X161.379 Y156.728 E29.88855
G1 X160.774 Y157.204 E29.92696
G1 X160.124 Y157.614 E29.9653
G1 X159.434 Y157.954 E30.00367
G1 X159.076 Y158.097 E30.02291
G1 X158.646 Y158.256 E30.04578
G1 X157.912 Y158.485 E30.08414
G1 X157.158 Y158.636 E30.1225
G1 X156.08 Y158.715 E30.17643
G1 X88.926 Y158.715 E33.52676
G1 X63.918 Y158.716 E34.77441
G1 X63.15 Y158.676 E34.81278
G1 X62.39 Y158.557 E34.85116
G1 X61.647 Y158.359 E34.88952
G1 X61.07 Y158.146 E34.9202
G1 X60.588 Y157.945 E34.94626
G1 X59.894 Y157.612 E34.98466
G1 X59.239 Y157.21 E35.023
G1 X58.629 Y156.741 E35.06139
G1 X57.87 Y155.992 E35.11459
G1 X57.778 Y155.887 E35.12156
G1 X57.302 Y155.283 E35.15992
G1 X56.891 Y154.632 E35.19833
G1 X56.55 Y153.943 E35.23669
G1 X56.403 Y153.576 E35.25641
G1 X56.244 Y153.146 E35.27928
G1 X56.015 Y152.412 E35.31764
G1 X55.864 Y151.658 E35.35601
G1 X55.785 Y150.58 E35.40993
G1 X55.785 Y91.44 E38.36044
G1 X55.784 Y69.418 E39.45912
G1 X55.824 Y68.65 E39.49749
G1 X55.943 Y67.89 E39.53587
G1 X56.141 Y67.147 E39.57423
G1 X56.297 Y66.711 E39.59733
G1 X56.479 Y66.248 E39.62215
G1 X56.797 Y65.548 E39.66051
G1 X57.186 Y64.884 E39.6989
G1 X57.642 Y64.265 E39.73726
G1 X58.16 Y63.696 E39.77565
G1 X58.474 Y63.403 E39.79707
G0 F3600 X58.738 Y63.703
G1 F1800 X58.839 Y63.614 E39.80379
G1 X59.426 Y63.15 E39.84112
G1 X60.059 Y62.752 E39.87843
G1 X60.875 Y62.364 E39.9235
G1 X61.329 Y62.183 E39.94789
G1 X62.037 Y61.943 E39.98518
G1 X62.768 Y61.781 E40.02254
G1 X63.511 Y61.697 E40.05984
G1 X63.921 Y61.685 E40.08031
G1 X156.083 Y61.685 E44.67829
G1 X156.83 Y61.725 E44.71561
G1 X157.568 Y61.844 E44.7529
G1 X158.29 Y62.042 E44.79025
G1 X159.272 Y62.454 E44.84338
G1 X159.823 Y62.736 E44.87426
G1 X160.47 Y63.112 E44.9116
G1 X161.073 Y63.554 E44.9489
G1 X161.625 Y64.059 E44.98622
G1 X162.12 Y64.62 E45.02355
G1 X162.553 Y65.23 E45.06087
G1 X162.918 Y65.883 E45.09819
G1 X163.136 Y66.375 E45.12504
G1 X163.317 Y66.829 E45.14942
G1 X163.557 Y67.537 E45.18672
G1 X163.719 Y68.268 E45.22407
G1 X163.803 Y69.011 E45.26138
G1 X163.815 Y69.421 E45.28184
G1 X163.815 Y150.58 E49.33088
G1 X163.775 Y151.327 E49.3682
G1 X163.656 Y152.065 E49.4055
G1 X163.458 Y152.787 E49.44285
G1 X163.279 Y153.267 E49.46841
G1 X163.077 Y153.753 E49.49466
G1 X162.753 Y154.427 E49.53197
G1 X162.36 Y155.063 E49.56927
G1 X161.9 Y155.654 E49.60664
G1 X161.219 Y156.337 E49.65476
G1 X161.116 Y156.427 E49.66158
G1 X160.527 Y156.889 E49.69893
G1 X159.892 Y157.285 E49.73626
G1 X158.938 Y157.722 E49.78861
G1 X158.508 Y157.881 E49.81149
G1 X157.793 Y158.102 E49.84882
G1 X157.059 Y158.246 E49.88614
G1 X156.08 Y158.315 E49.9351
G1 X88.926 Y158.315 E53.28543
G1 X63.918 Y158.316 E54.53308
G1 X63.171 Y158.276 E54.57041
G1 X62.433 Y158.157 E54.6077
G1 X61.711 Y157.959 E54.64505
G1 X61.224 Y157.777 E54.67099
G1 X60.742 Y157.576 E54.69704
G1 X60.068 Y157.251 E54.73437
G1 X59.432 Y156.857 E54.7717
G1 X58.842 Y156.397 E54.80902
G1 X58.171 Y155.728 E54.8563
G1 X58.079 Y155.623 E54.86326
G1 X57.617 Y155.035 E54.90057
G1 X57.22 Y154.401 E54.93789
G1 X56.778 Y153.438 E54.99075
G1 X56.619 Y153.008 E55.01362
G1 X56.398 Y152.293 E55.05096
G1 X56.254 Y151.559 E55.08828
G1 X56.185 Y150.58 E55.13724
G1 X56.185 Y91.44 E58.08775
G1 X56.184 Y69.418 E59.18643
G1 X56.224 Y68.671 E59.22375
G1 X56.343 Y67.933 E59.26105
G1 X56.541 Y67.211 E59.2984
G1 X56.669 Y66.857 E59.31718
G1 X56.851 Y66.394 E59.342
G1 X57.162 Y65.714 E59.3793
G1 X57.543 Y65.07 E59.41663
G1 X57.991 Y64.471 E59.45395
G1 X58.738 Y63.703 E59.5074
G0 F3600 X59.003 Y64.003
G1 F1800 X59.104 Y63.914 E59.51412
G1 X59.674 Y63.465 E59.55032
G1 X60.291 Y63.081 E59.58658
G1 X61.023 Y62.735 E59.62697
G1 X61.477 Y62.554 E59.65135
G1 X62.165 Y62.323 E59.68756
G1 X62.875 Y62.168 E59.72382
G1 X63.921 Y62.085 E59.77617
G1 X156.083 Y62.085 E64.37415
G1 X156.808 Y62.125 E64.41037
G1 X157.525 Y62.244 E64.44663
G1 X158.224 Y62.442 E64.48288
G1 X159.09 Y62.81 E64.52982
G1 X159.641 Y63.092 E64.5607
G1 X160.268 Y63.458 E64.59692
G1 X160.852 Y63.891 E64.63319
G1 X161.384 Y64.385 E64.66941
G1 X161.859 Y64.934 E64.70563
G1 X162.27 Y65.533 E64.74187
G1 X162.614 Y66.173 E64.77812
G1 X162.765 Y66.523 E64.79714
G1 X162.946 Y66.977 E64.82153
G1 X163.177 Y67.665 E64.85773
G1 X163.332 Y68.375 E64.89399
G1 X163.415 Y69.421 E64.94634
G1 X163.415 Y150.58 E68.99538
G1 X163.375 Y151.305 E69.0316
G1 X163.256 Y152.022 E69.06786
G1 X163.058 Y152.721 E69.10411
G1 X162.91 Y153.113 E69.12501
G1 X162.708 Y153.599 E69.15127
G1 X162.392 Y154.253 E69.18751
G1 X162.007 Y154.869 E69.22375
G1 X161.556 Y155.439 E69.26001
G1 X160.956 Y156.036 E69.30224
G1 X160.853 Y156.126 E69.30906
G1 X160.28 Y156.573 E69.34532
G1 X159.662 Y156.955 E69.38157
G1 X158.799 Y157.346 E69.42884
G1 X158.369 Y157.505 E69.45171
G1 X157.675 Y157.719 E69.48794
G1 X156.961 Y157.856 E69.52421
G1 X156.08 Y157.915 E69.56826
G1 X88.926 Y157.915 E72.91859
G1 X63.918 Y157.916 E74.16624
G1 X63.193 Y157.876 E74.20247
G1 X62.476 Y157.757 E74.23873
G1 X61.777 Y157.559 E74.27498
G1 X61.378 Y157.408 E74.29626
G1 X60.896 Y157.207 E74.32231
G1 X60.242 Y156.891 E74.35855
G1 X59.626 Y156.505 E74.39482
G1 X59.057 Y156.053 E74.43107
G1 X58.472 Y155.464 E74.47249
G1 X58.38 Y155.359 E74.47945
G1 X57.932 Y154.788 E74.51566
G1 X57.55 Y154.17 E74.55191
G1 X57.154 Y153.299 E74.59964
G1 X56.995 Y152.869 E74.62252
G1 X56.781 Y152.175 E74.65875
G1 X56.644 Y151.461 E74.69502
G1 X56.585 Y150.58 E74.73907
G1 X56.585 Y91.44 E77.68958
G1 X56.584 Y69.418 E78.78826
G1 X56.624 Y68.693 E78.82449
G1 X56.743 Y67.976 E78.86075
G1 X57.042 Y67.003 E78.91153
G1 X57.224 Y66.54 E78.93635
G1 X57.526 Y65.88 E78.97256
G1 X57.899 Y65.257 E79.00879
G1 X58.339 Y64.679 E79.04503
G1 X59.003 Y64.003 E79.0923
G0 F3600 X59.267 Y64.303
G1 F1800 X59.368 Y64.214 E79.09902
G1 X59.922 Y63.78 E79.13413
G1 X60.521 Y63.411 E79.16923
G1 X61.171 Y63.107 E79.20503
G1 X61.625 Y62.926 E79.22941
G1 X62.293 Y62.703 E79.26455
G1 X62.981 Y62.557 E79.29964
G1 X63.921 Y62.485 E79.34667
G1 X156.083 Y62.485 E83.94465
G1 X156.786 Y62.525 E83.97978
G1 X157.48 Y62.644 E84.01491
G1 X158.155 Y62.842 E84.05
G1 X158.908 Y63.166 E84.0909
G1 X159.459 Y63.448 E84.12178
G1 X160.066 Y63.804 E84.15689
G1 X160.629 Y64.226 E84.19199
G1 X161.141 Y64.709 E84.22711
G1 X161.595 Y65.248 E84.26227
G1 X161.984 Y65.834 E84.29736
G1 X162.393 Y66.671 E84.34384
G1 X162.574 Y67.125 E84.36822
G1 X162.797 Y67.793 E84.40335
G1 X162.943 Y68.481 E84.43844
G1 X163.015 Y69.421 E84.48548
G1 X163.015 Y150.58 E88.53452
G1 X162.975 Y151.283 E88.56965
G1 X162.856 Y151.977 E88.60477
G1 X162.54 Y152.96 E88.65629
G1 X162.338 Y153.446 E88.68255
G1 X162.032 Y154.079 E88.71762
G1 X161.655 Y154.674 E88.75276
G1 X161.213 Y155.222 E88.78789
G1 X160.693 Y155.735 E88.82433
G1 X160.59 Y155.825 E88.83116
G1 X160.034 Y156.257 E88.86628
G1 X159.433 Y156.624 E88.90142
G1 X158.66 Y156.971 E88.94369
G1 X158.23 Y157.13 E88.96656
G1 X157.557 Y157.336 E89.00168
G1 X156.865 Y157.465 E89.03679
G1 X156.08 Y157.515 E89.07604
G1 X88.926 Y157.515 E92.42636
G1 X63.918 Y157.516 E93.67402
G1 X63.215 Y157.476 E93.70915
G1 X62.521 Y157.357 E93.74428
G1 X61.532 Y157.038 E93.79612
G1 X61.05 Y156.837 E93.82218
G1 X60.416 Y156.53 E93.85732
G1 X59.822 Y156.153 E93.89242
G1 X59.274 Y155.711 E93.92754
G1 X58.773 Y155.201 E93.96321
G1 X58.681 Y155.096 E93.97018
G1 X58.248 Y154.541 E94.00529
G1 X57.88 Y153.94 E94.04045
G1 X57.529 Y153.16 E94.08313
G1 X57.37 Y152.73 E94.106
G1 X57.164 Y152.057 E94.14111
G1 X57.035 Y151.365 E94.17623
G1 X56.985 Y150.58 E94.21547
G1 X56.985 Y91.44 E97.16598
G1 X56.984 Y69.418 E98.26466
G1 X57.024 Y68.715 E98.29979
G1 X57.143 Y68.021 E98.33492
G1 X57.414 Y67.15 E98.38043
G1 X57.596 Y66.687 E98.40525
G1 X57.89 Y66.047 E98.44039
G1 X58.255 Y65.445 E98.47551
G1 X58.686 Y64.889 E98.51061
G1 X59.267 Y64.303 E98.55178
G0 F3600 X59.531 Y64.603
G1 F1800 X59.632 Y64.514 E98.55849
G1 X60.169 Y64.095 E98.59247
G1 X60.751 Y63.741 E98.62646
G1 X61.319 Y63.478 E98.65769
G1 X61.773 Y63.297 E98.68207
G1 X62.419 Y63.083 E98.71602
G1 X63.086 Y62.945 E98.75
G1 X63.921 Y62.885 E98.79177
G1 X156.083 Y62.885 E103.38975
G1 X156.763 Y62.925 E103.42374
G1 X157.433 Y63.044 E103.45769
G1 X158.085 Y63.241 E103.49167
G1 X158.725 Y63.522 E103.52654
G1 X159.276 Y63.804 E103.55742
G1 X159.863 Y64.149 E103.59139
G1 X160.406 Y64.561 E103.62539
G1 X160.896 Y65.033 E103.65934
G1 X161.328 Y65.56 E103.69333
G1 X161.695 Y66.133 E103.72728
G1 X162.022 Y66.819 E103.7652
G1 X162.203 Y67.273 E103.78958
G1 X162.417 Y67.919 E103.82353
G1 X162.555 Y68.586 E103.85751
G1 X162.615 Y69.421 E103.89928
G1 X162.615 Y150.58 E107.94832
G1 X162.575 Y151.26 E107.9823
G1 X162.456 Y151.93 E108.01625
G1 X162.171 Y152.806 E108.06221
G1 X161.969 Y153.292 E108.08847
G1 X161.671 Y153.904 E108.12243
G1 X161.304 Y154.478 E108.15642
G1 X160.871 Y155.004 E108.19041
G1 X160.429 Y155.434 E108.22117
G1 X160.326 Y155.524 E108.228
G1 X159.788 Y155.941 E108.26196
G1 X159.205 Y156.292 E108.29591
G1 X158.522 Y156.596 E108.3332
G1 X158.092 Y156.755 E108.35608
G1 X157.44 Y156.953 E108.39007
G1 X156.77 Y157.074 E108.42404
G1 X156.08 Y157.115 E108.45852
G1 X88.926 Y157.115 E111.80885
G1 X63.918 Y157.116 E113.0565
G1 X63.238 Y157.076 E113.09049
G1 X62.568 Y156.957 E113.12444
G1 X61.686 Y156.669 E113.17073
G1 X61.204 Y156.468 E113.19678
G1 X60.592 Y156.17 E113.23074
G1 X60.019 Y155.802 E113.26472
G1 X59.493 Y155.369 E113.29871
G1 X59.074 Y154.937 E113.32873
G1 X58.982 Y154.832 E113.3357
G1 X58.564 Y154.295 E113.36965
G1 X58.212 Y153.712 E113.40362
G1 X57.904 Y153.022 E113.44132
G1 X57.745 Y152.592 E113.46419
G1 X57.547 Y151.94 E113.49819
G1 X57.426 Y151.27 E113.53216
G1 X57.385 Y150.58 E113.56664
G1 X57.385 Y91.44 E116.51715
G1 X57.384 Y69.418 E117.61583
G1 X57.424 Y68.738 E117.64981
G1 X57.543 Y68.068 E117.68376
G1 X57.786 Y67.296 E117.72414
G1 X57.968 Y66.833 E117.74896
G1 X58.254 Y66.215 E117.78294
G1 X58.61 Y65.635 E117.81689
G1 X59.032 Y65.1 E117.85088
G1 X59.531 Y64.603 E117.88602
G0 F3600 X59.796 Y64.904
G1 F1800 X59.897 Y64.815 E117.89274
G1 X60.415 Y64.411 E117.92551
G1 X60.979 Y64.073 E117.95831
G1 X61.467 Y63.85 E117.98508
G1 X61.921 Y63.669 E118.00947
G1 X62.545 Y63.463 E118.04225
G1 X63.189 Y63.335 E118.07501
G1 X63.921 Y63.285 E118.11161
G1 X156.083 Y63.285 E122.70959
G1 X156.739 Y63.325 E122.74238
G1 X157.385 Y63.444 E122.77515
G1 X158.012 Y63.641 E122.80794
G1 X158.543 Y63.878 E122.83695
G1 X159.094 Y64.16 E122.86783
G1 X159.66 Y64.494 E122.90062
G1 X160.18 Y64.895 E122.93338
G1 X160.649 Y65.356 E122.96619
G1 X161.058 Y65.87 E122.99896
G1 X161.401 Y66.43 E123.03173
G1 X161.65 Y66.967 E123.06126
G1 X161.831 Y67.421 E123.08564
G1 X162.037 Y68.045 E123.11842
G1 X162.165 Y68.689 E123.15118
G1 X162.215 Y69.421 E123.18779
G1 X162.215 Y150.58 E127.23683
G1 X162.175 Y151.236 E127.26961
G1 X162.056 Y151.882 E127.30239
G1 X161.801 Y152.653 E127.3429
G1 X161.599 Y153.139 E127.36916
G1 X161.311 Y153.729 E127.40191
G1 X160.953 Y154.28 E127.4347
G1 X160.53 Y154.783 E127.46748
G1 X160.166 Y155.132 E127.49264
G1 X160.063 Y155.222 E127.49947
G1 X159.543 Y155.624 E127.53226
G1 X158.978 Y155.959 E127.56503
G1 X158.383 Y156.221 E127.59746
G1 X157.953 Y156.38 E127.62034
G1 X157.324 Y156.57 E127.65312
G1 X156.677 Y156.682 E127.68588
G1 X156.08 Y156.715 E127.71571
G1 X88.926 Y156.715 E131.06603
G1 X63.918 Y156.716 E132.31369
G1 X63.262 Y156.676 E132.34648
G1 X62.616 Y156.557 E132.37925
G1 X61.84 Y156.3 E132.42003
G1 X61.358 Y156.099 E132.44608
G1 X60.768 Y155.81 E132.47886
G1 X60.217 Y155.451 E132.51167
G1 X59.715 Y155.028 E132.54442
G1 X59.374 Y154.674 E132.56894
G1 X59.282 Y154.569 E132.57591
G1 X58.88 Y154.049 E132.6087
G1 X58.544 Y153.485 E132.64145
G1 X58.279 Y152.883 E132.67427
G1 X58.12 Y152.453 E132.69714
G1 X57.93 Y151.824 E132.72992
G1 X57.818 Y151.177 E132.76268
G1 X57.785 Y150.58 E132.79251
G1 X57.785 Y91.44 E135.74302
G1 X57.784 Y69.418 E136.8417
G1 X57.824 Y68.762 E136.87449
G1 X57.943 Y68.116 E136.90726
G1 X58.158 Y67.442 E136.94255
G1 X58.34 Y66.979 E136.96737
G1 X58.617 Y66.384 E137.00012
